;FLAVOR:Marlin
;TIME:3081
;Filament used: 1.49048m
;Layer height: 0.12
;MINX:92.2
;MINY:92.2
;MINZ:0.12
;MAXX:127.8
;MAXY:127.8
;MAXZ:19.92
;Generated with Cura_SteamEngine 4.8.0
M140 S60
M105
M190 S60
M104 S200
M105
M109 S200
M82 ;absolute extrusion mode
; Ender 3 Custom Start G-code
G92 E0 ; Reset Extruder
G28 ; Home all axes
G1 Z2.0 F3000 ; Move Z Axis up little to prevent scratching of Heat Bed
G1 X0.1 Y20 Z0.3 F5000.0 ; Move to start position
G1 X0.1 Y200.0 Z0.3 F1500.0 E15 ; Draw the first line
G1 X0.4 Y200.0 Z0.3 F5000.0 ; Move to side a little
G1 X0.4 Y20 Z0.3 F1500.0 E30 ; Draw the second line
G92 E0 ; Reset Extruder
G1 Z2.0 F3000 ; Move Z Axis up little to prevent scratching of Heat Bed
G1 X5 Y20 Z0.3 F5000.0 ; Move over to prevent blob squish
G92 E0
G92 E0
G1 F1500 E-6.5
;LAYER_COUNT:166
;LAYER:0
M107
G0 F6000 X94.485 Y94.602 Z0.12
;TYPE:SKIRT
G1 F1500 E0
G1 F1200 X94.602 Y94.485 E0.0033
G1 X95.188 Y93.955 E0.01907
G1 X95.824 Y93.488 E0.03482
G1 X96.504 Y93.087 E0.05057
G1 X97.222 Y92.757 E0.06634
G1 X97.969 Y92.502 E0.08209
G1 X98.738 Y92.323 E0.09785
G1 X99.522 Y92.223 E0.11362
G1 X100.117 Y92.2 E0.1255
G1 X119.883 Y92.2 E0.51995
G1 X120.672 Y92.24 E0.53572
G1 X121.452 Y92.359 E0.55147
G1 X122.217 Y92.557 E0.56724
G1 X122.957 Y92.831 E0.58298
G1 X123.666 Y93.179 E0.59874
G1 X124.337 Y93.597 E0.61452
G1 X124.961 Y94.08 E0.63027
G1 X125.398 Y94.485 E0.64216
G1 X125.515 Y94.602 E0.64546
G1 X126.045 Y95.188 E0.66123
G1 X126.512 Y95.824 E0.67697
G1 X126.913 Y96.504 E0.69273
G1 X127.243 Y97.222 E0.7085
G1 X127.498 Y97.969 E0.72425
G1 X127.677 Y98.738 E0.74001
G1 X127.777 Y99.522 E0.75578
G1 X127.8 Y100.117 E0.76766
G1 X127.8 Y119.883 E1.16211
G1 X127.76 Y120.672 E1.17788
G1 X127.641 Y121.452 E1.19362
G1 X127.443 Y122.217 E1.20939
G1 X127.169 Y122.957 E1.22514
G1 X126.821 Y123.666 E1.2409
G1 X126.403 Y124.337 E1.25668
G1 X125.92 Y124.961 E1.27243
G1 X125.515 Y125.398 E1.28432
G1 X125.398 Y125.515 E1.28762
G1 X124.812 Y126.045 E1.30338
G1 X124.176 Y126.512 E1.31913
G1 X123.496 Y126.913 E1.33489
G1 X122.778 Y127.243 E1.35065
G1 X122.031 Y127.498 E1.36641
G1 X121.262 Y127.677 E1.38216
G1 X120.478 Y127.777 E1.39794
G1 X119.883 Y127.8 E1.40982
G1 X100.117 Y127.8 E1.80427
G1 X99.328 Y127.76 E1.82004
G1 X98.548 Y127.641 E1.83578
G1 X97.783 Y127.443 E1.85155
G1 X97.043 Y127.169 E1.8673
G1 X96.334 Y126.821 E1.88306
G1 X95.663 Y126.403 E1.89884
G1 X95.039 Y125.92 E1.91458
G1 X94.602 Y125.515 E1.92647
G1 X94.485 Y125.398 E1.92977
G1 X93.955 Y124.812 E1.94554
G1 X93.488 Y124.176 E1.96129
G1 X93.087 Y123.496 E1.97704
G1 X92.757 Y122.778 E1.99281
G1 X92.502 Y122.031 E2.00856
G1 X92.323 Y121.262 E2.02432
G1 X92.223 Y120.478 E2.04009
G1 X92.2 Y119.883 E2.05198
G1 X92.2 Y100.117 E2.44643
G1 X92.24 Y99.328 E2.46219
G1 X92.359 Y98.548 E2.47794
G1 X92.557 Y97.783 E2.49371
G1 X92.831 Y97.043 E2.50946
G1 X93.179 Y96.334 E2.52522
G1 X93.597 Y95.663 E2.54099
G1 X94.08 Y95.039 E2.55674
G1 X94.485 Y94.602 E2.56863
G0 F6000 X94.767 Y94.884
G1 F1200 X94.884 Y94.767 E2.57193
G1 X95.456 Y94.253 E2.58728
G1 X96.078 Y93.8 E2.60263
G1 X96.743 Y93.414 E2.61798
G1 X97.445 Y93.099 E2.63333
G1 X98.176 Y92.859 E2.64869
G1 X98.927 Y92.696 E2.66402
G1 X99.692 Y92.612 E2.67938
G1 X100.117 Y92.6 E2.68787
G1 X119.883 Y92.6 E3.08232
G1 X120.651 Y92.64 E3.09767
G1 X121.411 Y92.759 E3.11302
G1 X122.154 Y92.957 E3.12836
G1 X122.873 Y93.231 E3.14372
G1 X123.559 Y93.578 E3.15906
G1 X124.206 Y93.994 E3.17441
G1 X124.806 Y94.475 E3.18975
G1 X125.116 Y94.767 E3.19825
G1 X125.233 Y94.884 E3.20156
G1 X125.747 Y95.456 E3.2169
G1 X126.2 Y96.078 E3.23226
G1 X126.586 Y96.743 E3.2476
G1 X126.901 Y97.445 E3.26296
G1 X127.141 Y98.176 E3.27831
G1 X127.304 Y98.927 E3.29365
G1 X127.388 Y99.692 E3.30901
G1 X127.4 Y100.117 E3.31749
G1 X127.4 Y119.883 E3.71194
G1 X127.36 Y120.651 E3.72729
G1 X127.241 Y121.411 E3.74264
G1 X127.043 Y122.154 E3.75798
G1 X126.769 Y122.873 E3.77334
G1 X126.422 Y123.559 E3.78868
G1 X126.006 Y124.206 E3.80403
G1 X125.525 Y124.806 E3.81938
G1 X125.233 Y125.116 E3.82788
G1 X125.116 Y125.233 E3.83118
G1 X124.544 Y125.747 E3.84653
G1 X123.922 Y126.2 E3.86188
G1 X123.257 Y126.586 E3.87723
G1 X122.555 Y126.901 E3.89258
G1 X121.824 Y127.141 E3.90793
G1 X121.073 Y127.304 E3.92327
G1 X120.308 Y127.388 E3.93863
G1 X119.883 Y127.4 E3.94711
G1 X100.117 Y127.4 E4.34156
G1 X99.349 Y127.36 E4.35691
G1 X98.589 Y127.241 E4.37226
G1 X97.846 Y127.043 E4.38761
G1 X97.127 Y126.769 E4.40296
G1 X96.441 Y126.422 E4.4183
G1 X95.794 Y126.006 E4.43365
G1 X95.194 Y125.525 E4.449
G1 X94.884 Y125.233 E4.4575
G1 X94.767 Y125.116 E4.4608
G1 X94.253 Y124.544 E4.47615
G1 X93.8 Y123.922 E4.4915
G1 X93.414 Y123.257 E4.50685
G1 X93.099 Y122.555 E4.5222
G1 X92.859 Y121.824 E4.53756
G1 X92.696 Y121.073 E4.55289
G1 X92.612 Y120.308 E4.56825
G1 X92.6 Y119.883 E4.57674
G1 X92.6 Y100.117 E4.97119
G1 X92.64 Y99.349 E4.98654
G1 X92.759 Y98.589 E5.00189
G1 X92.957 Y97.846 E5.01723
G1 X93.231 Y97.127 E5.03259
G1 X93.578 Y96.441 E5.04793
G1 X93.994 Y95.794 E5.06328
G1 X94.475 Y95.194 E5.07862
G1 X94.767 Y94.884 E5.08712
G0 F6000 X95.05 Y95.167
G1 F1200 X95.167 Y95.05 E5.09042
G1 X95.724 Y94.55 E5.10536
G1 X96.33 Y94.113 E5.12027
G1 X96.98 Y93.742 E5.13521
G1 X97.666 Y93.443 E5.15014
G1 X98.38 Y93.219 E5.16507
G1 X99.113 Y93.072 E5.17999
G1 X100.117 Y93 E5.20008
G1 X119.883 Y93 E5.59453
G1 X120.63 Y93.04 E5.60946
G1 X121.368 Y93.159 E5.62438
G1 X122.09 Y93.357 E5.63932
G1 X122.786 Y93.63 E5.65424
G1 X123.449 Y93.977 E5.66917
G1 X124.072 Y94.392 E5.68411
G1 X124.833 Y95.05 E5.70419
G1 X124.95 Y95.167 E5.70749
G1 X125.45 Y95.724 E5.72243
G1 X125.887 Y96.33 E5.73734
G1 X126.258 Y96.98 E5.75227
G1 X126.557 Y97.666 E5.76721
G1 X126.781 Y98.38 E5.78214
G1 X126.928 Y99.113 E5.79706
G1 X127 Y100.117 E5.81715
G1 X127 Y119.883 E6.2116
G1 X126.96 Y120.63 E6.22653
G1 X126.841 Y121.368 E6.24144
G1 X126.643 Y122.09 E6.25638
G1 X126.37 Y122.786 E6.2713
G1 X126.023 Y123.449 E6.28624
G1 X125.608 Y124.072 E6.30118
G1 X124.95 Y124.833 E6.32125
G1 X124.833 Y124.95 E6.32455
G1 X124.276 Y125.45 E6.33949
G1 X123.67 Y125.887 E6.3544
G1 X123.02 Y126.258 E6.36934
G1 X122.334 Y126.557 E6.38427
G1 X121.62 Y126.781 E6.3992
G1 X120.887 Y126.928 E6.41412
G1 X119.883 Y127 E6.43421
G1 X100.117 Y127 E6.82866
G1 X99.37 Y126.96 E6.84359
G1 X98.632 Y126.841 E6.85851
G1 X97.91 Y126.643 E6.87345
G1 X97.214 Y126.37 E6.88837
G1 X96.551 Y126.023 E6.9033
G1 X95.928 Y125.608 E6.91824
G1 X95.167 Y124.95 E6.93832
G1 X95.05 Y124.833 E6.94162
G1 X94.55 Y124.276 E6.95656
G1 X94.113 Y123.67 E6.97147
G1 X93.742 Y123.02 E6.9864
G1 X93.443 Y122.334 E7.00133
G1 X93.219 Y121.62 E7.01627
G1 X93.072 Y120.887 E7.03119
G1 X93 Y119.883 E7.05127
G1 X93 Y100.117 E7.44573
G1 X93.04 Y99.37 E7.46066
G1 X93.159 Y98.632 E7.47557
G1 X93.357 Y97.91 E7.49051
G1 X93.63 Y97.214 E7.50543
G1 X93.977 Y96.551 E7.52037
G1 X94.392 Y95.928 E7.5353
G1 X95.05 Y95.167 E7.55538
G0 F6000 X95.333 Y95.45
G1 F1200 X95.45 Y95.333 E7.55868
G1 X95.991 Y94.849 E7.57317
G1 X96.582 Y94.426 E7.58767
G1 X97.216 Y94.072 E7.60216
G1 X97.885 Y93.789 E7.61666
G1 X98.581 Y93.581 E7.63116
G1 X99.296 Y93.451 E7.64566
G1 X100.117 Y93.4 E7.66207
G1 X119.883 Y93.4 E8.05653
G1 X120.608 Y93.44 E8.07102
G1 X121.325 Y93.559 E8.08552
G1 X122.024 Y93.757 E8.10002
G1 X122.697 Y94.03 E8.11451
G1 X123.336 Y94.375 E8.129
G1 X123.933 Y94.789 E8.1435
G1 X124.55 Y95.333 E8.15992
G1 X124.667 Y95.45 E8.16322
G1 X125.151 Y95.991 E8.17771
G1 X125.574 Y96.582 E8.19221
G1 X125.928 Y97.216 E8.2067
G1 X126.211 Y97.885 E8.2212
G1 X126.419 Y98.581 E8.23569
G1 X126.549 Y99.296 E8.2502
G1 X126.6 Y100.117 E8.26661
G1 X126.6 Y119.883 E8.66106
G1 X126.56 Y120.608 E8.67555
G1 X126.441 Y121.325 E8.69006
G1 X126.243 Y122.024 E8.70455
G1 X125.97 Y122.697 E8.71905
G1 X125.625 Y123.336 E8.73354
G1 X125.211 Y123.933 E8.74804
G1 X124.667 Y124.55 E8.76445
G1 X124.55 Y124.667 E8.76776
G1 X124.009 Y125.151 E8.78224
G1 X123.418 Y125.574 E8.79675
G1 X122.784 Y125.928 E8.81124
G1 X122.115 Y126.211 E8.82573
G1 X121.419 Y126.419 E8.84023
G1 X120.704 Y126.549 E8.85473
G1 X119.883 Y126.6 E8.87115
G1 X100.117 Y126.6 E9.2656
G1 X99.392 Y126.56 E9.28009
G1 X98.675 Y126.441 E9.29459
G1 X97.976 Y126.243 E9.30909
G1 X97.303 Y125.97 E9.32358
G1 X96.664 Y125.625 E9.33808
G1 X96.067 Y125.211 E9.35257
G1 X95.45 Y124.667 E9.36899
G1 X95.333 Y124.55 E9.37229
G1 X94.849 Y124.009 E9.38678
G1 X94.426 Y123.418 E9.40128
G1 X94.072 Y122.784 E9.41577
G1 X93.789 Y122.115 E9.43027
G1 X93.581 Y121.419 E9.44476
G1 X93.451 Y120.704 E9.45927
G1 X93.4 Y119.883 E9.47568
G1 X93.4 Y100.117 E9.87013
G1 X93.44 Y99.392 E9.88463
G1 X93.559 Y98.675 E9.89913
G1 X93.757 Y97.976 E9.91363
G1 X94.03 Y97.303 E9.92812
G1 X94.375 Y96.664 E9.94261
G1 X94.789 Y96.067 E9.95711
G1 X95.333 Y95.45 E9.97353
G0 F6000 X95.616 Y95.733
G1 F1200 X95.733 Y95.616 E9.97683
G1 X96.258 Y95.147 E9.99088
G1 X96.833 Y94.741 E10.00492
G1 X97.451 Y94.403 E10.01898
G1 X98.102 Y94.136 E10.03302
G1 X98.78 Y93.946 E10.04707
G1 X99.475 Y93.833 E10.06113
G1 X100.117 Y93.8 E10.07395
G1 X119.883 Y93.8 E10.46841
G1 X120.586 Y93.84 E10.48246
G1 X121.28 Y93.959 E10.49651
G1 X121.955 Y94.157 E10.51055
G1 X122.604 Y94.429 E10.52459
G1 X123.218 Y94.774 E10.53865
G1 X123.789 Y95.185 E10.55268
G1 X124.267 Y95.616 E10.56553
G1 X124.384 Y95.733 E10.56883
G1 X124.853 Y96.258 E10.58288
G1 X125.259 Y96.833 E10.59693
G1 X125.597 Y97.451 E10.61098
G1 X125.864 Y98.102 E10.62502
G1 X126.054 Y98.78 E10.63908
G1 X126.167 Y99.475 E10.65313
G1 X126.2 Y100.117 E10.66596
G1 X126.2 Y119.883 E11.06041
G1 X126.16 Y120.586 E11.07446
G1 X126.041 Y121.28 E11.08851
G1 X125.843 Y121.955 E11.10255
G1 X125.571 Y122.604 E11.11659
G1 X125.226 Y123.218 E11.13065
G1 X124.815 Y123.789 E11.14469
G1 X124.384 Y124.267 E11.15753
G1 X124.267 Y124.384 E11.16083
G1 X123.742 Y124.853 E11.17488
G1 X123.167 Y125.259 E11.18893
G1 X122.549 Y125.597 E11.20299
G1 X121.898 Y125.864 E11.21703
G1 X121.22 Y126.054 E11.23108
G1 X120.525 Y126.167 E11.24513
G1 X119.883 Y126.2 E11.25796
G1 X100.117 Y126.2 E11.65241
G1 X99.414 Y126.16 E11.66646
G1 X98.72 Y126.041 E11.68051
G1 X98.045 Y125.843 E11.69455
G1 X97.396 Y125.571 E11.7086
G1 X96.782 Y125.226 E11.72265
G1 X96.211 Y124.815 E11.73669
G1 X95.733 Y124.384 E11.74953
G1 X95.616 Y124.267 E11.75284
G1 X95.147 Y123.742 E11.76689
G1 X94.741 Y123.167 E11.78093
G1 X94.403 Y122.549 E11.79499
G1 X94.136 Y121.898 E11.80903
G1 X93.946 Y121.22 E11.82308
G1 X93.833 Y120.525 E11.83713
G1 X93.8 Y119.883 E11.84996
G1 X93.8 Y100.117 E12.24441
G1 X93.84 Y99.414 E12.25847
G1 X93.959 Y98.72 E12.27252
G1 X94.157 Y98.045 E12.28656
G1 X94.429 Y97.396 E12.3006
G1 X94.774 Y96.782 E12.31465
G1 X95.185 Y96.211 E12.32869
G1 X95.616 Y95.733 E12.34154
G0 F6000 X95.899 Y96.016
G1 F1200 X96.016 Y95.899 E12.34484
G1 X96.525 Y95.446 E12.35844
G1 X97.083 Y95.057 E12.37201
G1 X97.683 Y94.735 E12.3856
G1 X98.317 Y94.486 E12.39919
G1 X98.976 Y94.313 E12.41279
G1 X99.65 Y94.219 E12.42637
G1 X100.117 Y94.2 E12.4357
G1 X119.883 Y94.2 E12.83015
G1 X120.563 Y94.24 E12.84374
G1 X121.233 Y94.359 E12.85732
G1 X121.885 Y94.556 E12.87092
G1 X122.509 Y94.828 E12.8845
G1 X123.097 Y95.172 E12.89809
G1 X123.641 Y95.582 E12.91169
G1 X123.984 Y95.899 E12.92101
G1 X124.101 Y96.016 E12.92431
G1 X124.554 Y96.525 E12.93791
G1 X124.943 Y97.083 E12.95148
G1 X125.265 Y97.683 E12.96507
G1 X125.514 Y98.317 E12.97867
G1 X125.687 Y98.976 E12.99226
G1 X125.781 Y99.65 E13.00584
G1 X125.8 Y100.117 E13.01517
G1 X125.8 Y119.883 E13.40962
G1 X125.76 Y120.563 E13.42322
G1 X125.641 Y121.233 E13.4368
G1 X125.444 Y121.885 E13.45039
G1 X125.172 Y122.509 E13.46397
G1 X124.828 Y123.097 E13.47757
G1 X124.418 Y123.641 E13.49116
G1 X124.101 Y123.984 E13.50048
G1 X123.984 Y124.101 E13.50378
G1 X123.475 Y124.554 E13.51738
G1 X122.917 Y124.943 E13.53096
G1 X122.317 Y125.265 E13.54454
G1 X121.683 Y125.514 E13.55814
G1 X121.024 Y125.687 E13.57173
G1 X120.35 Y125.781 E13.58531
G1 X119.883 Y125.8 E13.59464
G1 X100.117 Y125.8 E13.98909
G1 X99.437 Y125.76 E14.00269
G1 X98.767 Y125.641 E14.01627
G1 X98.115 Y125.444 E14.02986
G1 X97.491 Y125.172 E14.04344
G1 X96.903 Y124.828 E14.05704
G1 X96.359 Y124.418 E14.07063
G1 X96.016 Y124.101 E14.07995
G1 X95.899 Y123.984 E14.08325
G1 X95.446 Y123.475 E14.09685
G1 X95.057 Y122.917 E14.11043
G1 X94.735 Y122.317 E14.12402
G1 X94.486 Y121.683 E14.13761
G1 X94.313 Y121.024 E14.15121
G1 X94.219 Y120.35 E14.16479
G1 X94.2 Y119.883 E14.17411
G1 X94.2 Y100.117 E14.56857
G1 X94.24 Y99.437 E14.58216
G1 X94.359 Y98.767 E14.59574
G1 X94.556 Y98.115 E14.60933
G1 X94.828 Y97.491 E14.62292
G1 X95.172 Y96.903 E14.63651
G1 X95.582 Y96.359 E14.6501
G1 X95.899 Y96.016 E14.65942
G0 F6000 X96.182 Y96.299
G1 F1200 X96.299 Y96.182 E14.66273
G1 X96.791 Y95.746 E14.67585
G1 X97.332 Y95.374 E14.68895
G1 X97.914 Y95.07 E14.70205
G1 X98.529 Y94.839 E14.71516
G1 X99.168 Y94.684 E14.72828
G1 X100.117 Y94.6 E14.7473
G1 X119.883 Y94.6 E15.14175
G1 X120.539 Y94.64 E15.15486
G1 X121.185 Y94.759 E15.16797
G1 X121.812 Y94.956 E15.18109
G1 X122.41 Y95.228 E15.1942
G1 X122.971 Y95.57 E15.20731
G1 X123.701 Y96.182 E15.22632
G1 X123.818 Y96.299 E15.22962
G1 X124.254 Y96.791 E15.24274
G1 X124.626 Y97.332 E15.25584
G1 X124.93 Y97.914 E15.26895
G1 X125.161 Y98.529 E15.28206
G1 X125.316 Y99.168 E15.29518
G1 X125.4 Y100.117 E15.31419
G1 X125.4 Y119.883 E15.70864
G1 X125.36 Y120.539 E15.72176
G1 X125.241 Y121.185 E15.73487
G1 X125.044 Y121.812 E15.74798
G1 X124.772 Y122.41 E15.76109
G1 X124.43 Y122.971 E15.7742
G1 X123.818 Y123.701 E15.79321
G1 X123.701 Y123.818 E15.79652
G1 X123.209 Y124.254 E15.80963
G1 X122.668 Y124.626 E15.82274
G1 X122.086 Y124.93 E15.83584
G1 X121.471 Y125.161 E15.84895
G1 X120.832 Y125.316 E15.86207
G1 X119.883 Y125.4 E15.88108
G1 X100.117 Y125.4 E16.27554
G1 X99.461 Y125.36 E16.28865
G1 X98.815 Y125.241 E16.30176
G1 X98.188 Y125.044 E16.31488
G1 X97.59 Y124.772 E16.32799
G1 X97.029 Y124.43 E16.3411
G1 X96.299 Y123.818 E16.36011
G1 X96.182 Y123.701 E16.36341
G1 X95.746 Y123.209 E16.37653
G1 X95.374 Y122.668 E16.38963
G1 X95.07 Y122.086 E16.40273
G1 X94.839 Y121.471 E16.41584
G1 X94.684 Y120.832 E16.42897
G1 X94.6 Y119.883 E16.44798
G1 X94.6 Y100.117 E16.84243
G1 X94.64 Y99.461 E16.85555
G1 X94.759 Y98.815 E16.86865
G1 X94.956 Y98.188 E16.88177
G1 X95.228 Y97.59 E16.89488
G1 X95.57 Y97.029 E16.90799
G1 X96.182 Y96.299 E16.927
G0 F6000 X96.464 Y96.581
G1 F1200 X96.581 Y96.464 E16.9303
G1 X97.056 Y96.047 E16.94292
G1 X97.579 Y95.692 E16.95553
G1 X98.143 Y95.406 E16.96815
G1 X98.738 Y95.194 E16.98076
G1 X99.356 Y95.058 E16.99338
G1 X100.117 Y95 E17.00862
G1 X119.883 Y95 E17.40307
G1 X120.514 Y95.04 E17.41568
G1 X121.135 Y95.159 E17.4283
G1 X121.735 Y95.356 E17.44091
G1 X122.307 Y95.627 E17.45354
G1 X122.839 Y95.967 E17.46614
G1 X123.419 Y96.464 E17.48138
G1 X123.536 Y96.581 E17.48468
G1 X123.953 Y97.056 E17.49729
G1 X124.308 Y97.579 E17.50991
G1 X124.594 Y98.143 E17.52253
G1 X124.806 Y98.738 E17.53513
G1 X124.942 Y99.356 E17.54776
G1 X125 Y100.117 E17.56299
G1 X125 Y119.883 E17.95744
G1 X124.96 Y120.514 E17.97006
G1 X124.841 Y121.135 E17.98268
G1 X124.644 Y121.735 E17.99528
G1 X124.373 Y122.307 E18.00791
G1 X124.033 Y122.839 E18.02051
G1 X123.536 Y123.419 E18.03576
G1 X123.419 Y123.536 E18.03906
G1 X122.944 Y123.953 E18.05167
G1 X122.421 Y124.308 E18.06429
G1 X121.857 Y124.594 E18.07691
G1 X121.262 Y124.806 E18.08951
G1 X120.644 Y124.942 E18.10214
G1 X119.883 Y125 E18.11737
G1 X100.117 Y125 E18.51182
G1 X99.486 Y124.96 E18.52444
G1 X98.865 Y124.841 E18.53706
G1 X98.265 Y124.644 E18.54966
G1 X97.693 Y124.373 E18.56229
