;FLAVOR:Marlin
;TIME:1727
;Filament used: 1.32407m
;Layer height: 0.28
;MINX:78.955
;MINY:81.631
;MINZ:0.28
;MAXX:141.045
;MAXY:138.369
;MAXZ:5.04
;Generated with Cura_SteamEngine 4.8.0
M140 S60
M105
M190 S60
M104 S200
M105
M109 S200
M82 ;absolute extrusion mode
; Ender 3 Custom Start G-code
G92 E0 ; Reset Extruder
G28 ; Home all axes
G1 Z2.0 F3000 ; Move Z Axis up little to prevent scratching of Heat Bed
G1 X0.1 Y20 Z0.3 F5000.0 ; Move to start position
G1 X0.1 Y200.0 Z0.3 F1500.0 E15 ; Draw the first line
G1 X0.4 Y200.0 Z0.3 F5000.0 ; Move to side a little
G1 X0.4 Y20 Z0.3 F1500.0 E30 ; Draw the second line
G92 E0 ; Reset Extruder
G1 Z2.0 F3000 ; Move Z Axis up little to prevent scratching of Heat Bed
G1 X5 Y20 Z0.3 F5000.0 ; Move over to prevent blob squish
G92 E0
G92 E0
G1 F1500 E-6.5
;LAYER_COUNT:18
;LAYER:0
M107
G0 F6000 X91.623 Y85.485 Z0.28
;TYPE:SKIRT
G1 F1500 E0
G1 F1200 X92.263 Y84.799 E0.04369
G1 X92.959 Y84.17 E0.08737
G1 X93.706 Y83.603 E0.13104
G1 X94.499 Y83.102 E0.17471
G1 X95.331 Y82.67 E0.21837
G1 X96.198 Y82.311 E0.26206
G1 X97.091 Y82.026 E0.30571
G1 X98.006 Y81.819 E0.34939
G1 X98.935 Y81.69 E0.39307
G1 X99.817 Y81.642 E0.4342
G1 X100.665 Y81.631 E0.47369
G1 X119.321 Y81.631 E1.34239
G1 X120.179 Y81.642 E1.38234
G1 X121.115 Y81.695 E1.426
G1 X122.044 Y81.828 E1.4697
G1 X122.957 Y82.04 E1.51334
G1 X123.85 Y82.328 E1.55703
G1 X124.714 Y82.692 E1.60069
G1 X125.545 Y83.128 E1.64438
G1 X126.335 Y83.633 E1.68804
G1 X127.079 Y84.203 E1.73169
G1 X127.772 Y84.835 E1.77536
G1 X128.409 Y85.524 E1.81905
G1 X128.985 Y86.264 E1.86272
G1 X129.462 Y86.994 E1.90332
G1 X129.88 Y87.696 E1.94137
G1 X139.334 Y104.072 E2.82185
G1 X139.646 Y104.63 E2.85162
G1 X140.068 Y105.467 E2.89527
G1 X140.418 Y106.337 E2.93893
G1 X140.692 Y107.234 E2.98261
G1 X140.889 Y108.151 E3.02628
G1 X141.007 Y109.082 E3.06998
G1 X141.045 Y110.019 E3.11365
G1 X141.003 Y110.956 E3.15732
G1 X140.882 Y111.886 E3.20099
G1 X140.682 Y112.802 E3.24465
G1 X140.404 Y113.698 E3.28833
G1 X140.051 Y114.567 E3.33201
G1 X139.662 Y115.339 E3.37226
G1 X139.341 Y115.917 E3.40305
G1 X129.913 Y132.248 E4.28111
G1 X129.465 Y133 E4.32187
G1 X128.95 Y133.784 E4.36555
G1 X128.371 Y134.521 E4.40919
G1 X127.73 Y135.207 E4.45291
G1 X127.034 Y135.835 E4.49656
G1 X126.286 Y136.401 E4.54023
G1 X125.493 Y136.902 E4.58391
G1 X124.66 Y137.333 E4.62758
G1 X123.794 Y137.692 E4.67124
G1 X122.9 Y137.976 E4.71491
G1 X121.985 Y138.182 E4.75859
G1 X121.056 Y138.31 E4.80225
G1 X120.182 Y138.358 E4.84301
G1 X119.335 Y138.369 E4.88246
G1 X100.522 Y138.368 E5.75847
G1 X99.821 Y138.358 E5.79111
G1 X98.885 Y138.305 E5.83477
G1 X97.956 Y138.172 E5.87847
G1 X97.043 Y137.96 E5.92211
G1 X96.15 Y137.672 E5.9658
G1 X95.286 Y137.308 E6.00946
G1 X94.455 Y136.872 E6.05315
G1 X93.665 Y136.367 E6.09681
G1 X92.921 Y135.797 E6.14046
G1 X92.228 Y135.165 E6.18413
G1 X91.591 Y134.476 E6.22782
G1 X91.015 Y133.736 E6.27149
G1 X90.535 Y133 E6.3124
G1 X90.087 Y132.248 E6.35316
G1 X80.662 Y115.921 E7.231
G1 X80.35 Y115.362 E7.2608
G1 X79.928 Y114.524 E7.30449
G1 X79.579 Y113.654 E7.34814
G1 X79.306 Y112.757 E7.3918
G1 X79.11 Y111.839 E7.43551
G1 X78.993 Y110.909 E7.47916
G1 X78.955 Y109.972 E7.52282
G1 X78.998 Y109.035 E7.5665
G1 X79.12 Y108.105 E7.61018
G1 X79.321 Y107.189 E7.65384
G1 X79.599 Y106.293 E7.69753
G1 X79.952 Y105.425 E7.74116
G1 X80.339 Y104.659 E7.78112
G1 X80.749 Y103.924 E7.82031
G1 X90.12 Y87.695 E8.69293
G1 X90.53 Y87.007 E8.73023
G1 X91.044 Y86.222 E8.77392
G1 X91.623 Y85.485 E8.81756
G0 F6000 X91.949 Y85.719
G1 F1200 X92.58 Y85.049 E8.86042
G1 X93.267 Y84.436 E8.90329
G1 X94.004 Y83.884 E8.94617
G1 X94.786 Y83.399 E8.98901
G1 X95.608 Y82.983 E9.03191
G1 X96.462 Y82.641 E9.07475
G1 X97.343 Y82.373 E9.11763
G1 X98.244 Y82.184 E9.16049
G1 X99.158 Y82.073 E9.20337
G1 X99.823 Y82.042 E9.23437
G1 X100.665 Y82.031 E9.27358
G1 X119.321 Y82.031 E10.14228
G1 X120.173 Y82.042 E10.18195
G1 X121.092 Y82.095 E10.22482
G1 X122.003 Y82.228 E10.26769
G1 X122.899 Y82.439 E10.31055
G1 X123.774 Y82.727 E10.35344
G1 X124.62 Y83.09 E10.39631
G1 X125.431 Y83.525 E10.43916
G1 X126.202 Y84.029 E10.48205
G1 X126.926 Y84.598 E10.52493
G1 X127.598 Y85.227 E10.56779
G1 X128.213 Y85.912 E10.61066
G1 X128.766 Y86.648 E10.65352
G1 X129.119 Y87.199 E10.684
G1 X129.534 Y87.896 E10.72177
G1 X138.985 Y104.267 E11.60198
G1 X139.297 Y104.825 E11.63175
G1 X139.711 Y105.647 E11.6746
G1 X140.052 Y106.502 E11.71747
G1 X140.318 Y107.384 E11.76036
G1 X140.506 Y108.285 E11.80322
G1 X140.615 Y109.199 E11.84608
G1 X140.644 Y110.119 E11.88894
G1 X140.594 Y111.039 E11.93185
G1 X140.464 Y111.95 E11.97469
G1 X140.255 Y112.847 E12.01758
G1 X139.969 Y113.722 E12.06045
G1 X139.609 Y114.569 E12.1033
G1 X139.312 Y115.144 E12.13344
G1 X138.904 Y115.876 E12.17246
G1 X129.487 Y132.184 E13.04934
G1 X129.122 Y132.795 E13.08248
G1 X128.616 Y133.564 E13.12534
G1 X128.045 Y134.287 E13.16824
G1 X127.414 Y134.957 E13.2111
G1 X126.727 Y135.569 E13.25394
G1 X125.989 Y136.12 E13.29683
G1 X125.206 Y136.605 E13.33971
G1 X124.384 Y137.02 E13.38259
G1 X123.53 Y137.362 E13.42543
G1 X122.648 Y137.628 E13.46832
G1 X121.747 Y137.818 E13.5112
G1 X120.833 Y137.928 E13.55407
G1 X120.176 Y137.958 E13.58469
G1 X119.335 Y137.969 E13.62386
G1 X100.528 Y137.968 E14.49959
G1 X99.827 Y137.958 E14.53223
G1 X98.908 Y137.905 E14.5751
G1 X97.997 Y137.772 E14.61797
G1 X97.101 Y137.561 E14.66083
G1 X96.226 Y137.273 E14.70372
G1 X95.38 Y136.91 E14.74659
G1 X94.569 Y136.475 E14.78944
G1 X93.798 Y135.971 E14.83233
G1 X93.074 Y135.402 E14.87521
G1 X92.402 Y134.773 E14.91807
G1 X91.787 Y134.088 E14.96094
G1 X91.234 Y133.352 E15.0038
G1 X90.878 Y132.795 E15.03458
G1 X90.433 Y132.048 E15.07507
G1 X81.011 Y115.726 E15.95263
G1 X80.699 Y115.167 E15.98244
G1 X80.286 Y114.344 E16.02532
G1 X79.945 Y113.489 E16.06818
G1 X79.68 Y112.607 E16.11107
G1 X79.493 Y111.706 E16.15391
G1 X79.385 Y110.792 E16.19677
G1 X79.356 Y109.872 E16.23963
G1 X79.407 Y108.952 E16.28253
G1 X79.538 Y108.041 E16.32539
G1 X79.747 Y107.144 E16.36828
G1 X80.034 Y106.269 E16.41116
G1 X80.395 Y105.423 E16.45399
G1 X80.689 Y104.853 E16.48385
G1 X81.095 Y104.124 E16.52271
G1 X90.542 Y87.766 E17.4023
G1 X90.873 Y87.211 E17.43239
G1 X91.379 Y86.442 E17.47526
G1 X91.949 Y85.719 E17.51813
G0 F6000 X92.274 Y85.954
G1 F1200 X92.896 Y85.299 E17.56019
G1 X93.573 Y84.702 E17.60222
G1 X94.301 Y84.166 E17.64431
G1 X95.072 Y83.698 E17.68631
G1 X95.883 Y83.299 E17.7284
G1 X96.725 Y82.973 E17.77044
G1 X97.593 Y82.724 E17.81249
G1 X98.48 Y82.552 E17.85456
G1 X99.829 Y82.442 E17.91758
G1 X100.665 Y82.431 E17.95651
G1 X119.321 Y82.431 E18.82521
G1 X120.167 Y82.442 E18.86461
G1 X121.069 Y82.495 E18.90668
G1 X121.962 Y82.627 E18.94872
G1 X122.841 Y82.838 E18.99081
G1 X123.697 Y83.126 E19.03286
G1 X124.524 Y83.488 E19.0749
G1 X125.316 Y83.922 E19.11695
G1 X126.066 Y84.425 E19.159
G1 X126.769 Y84.992 E19.20106
G1 X127.419 Y85.618 E19.24308
G1 X128.012 Y86.3 E19.28516
G1 X128.775 Y87.405 E19.34769
G1 X129.187 Y88.096 E19.38515
G1 X138.636 Y104.462 E20.26512
G1 X138.948 Y105.02 E20.29488
G1 X139.353 Y105.827 E20.33693
G1 X139.686 Y106.667 E20.379
G1 X139.943 Y107.533 E20.42107
G1 X140.122 Y108.418 E20.46311
G1 X140.222 Y109.315 E20.50514
G1 X140.243 Y110.218 E20.5472
G1 X140.183 Y111.119 E20.58924
G1 X140.044 Y112.012 E20.63133
G1 X139.827 Y112.888 E20.67335
G1 X139.533 Y113.742 E20.7154
G1 X138.962 Y114.95 E20.77762
G1 X138.557 Y115.676 E20.81633
G1 X129.144 Y131.979 E21.69292
G1 X128.779 Y132.59 E21.72606
G1 X128.282 Y133.344 E21.76811
G1 X127.72 Y134.051 E21.81016
G1 X127.098 Y134.706 E21.85222
G1 X126.42 Y135.303 E21.89429
G1 X125.692 Y135.838 E21.93636
G1 X124.92 Y136.306 E21.97839
G1 X124.11 Y136.704 E22.02042
G1 X123.267 Y137.029 E22.06249
G1 X122.399 Y137.278 E22.10454
G1 X121.512 Y137.45 E22.14661
G1 X120.17 Y137.558 E22.2093
G1 X119.335 Y137.569 E22.24818
G1 X100.534 Y137.568 E23.12364
G1 X99.833 Y137.558 E23.15628
G1 X98.931 Y137.505 E23.19835
G1 X98.038 Y137.373 E23.24039
G1 X97.159 Y137.162 E23.28248
G1 X96.303 Y136.874 E23.32453
G1 X95.476 Y136.512 E23.36657
G1 X94.684 Y136.078 E23.40862
G1 X93.934 Y135.575 E23.45067
G1 X93.231 Y135.008 E23.49273
G1 X92.581 Y134.382 E23.53475
G1 X91.988 Y133.7 E23.57683
G1 X91.221 Y132.59 E23.63966
G1 X90.856 Y131.979 E23.6728
G1 X81.36 Y115.531 E24.55716
G1 X81.048 Y114.972 E24.58697
G1 X80.644 Y114.165 E24.629
G1 X80.312 Y113.325 E24.67105
G1 X80.056 Y112.459 E24.7131
G1 X79.877 Y111.574 E24.75515
G1 X79.777 Y110.676 E24.79722
G1 X79.758 Y109.773 E24.83928
G1 X79.818 Y108.872 E24.88132
G1 X79.957 Y107.98 E24.92336
G1 X80.175 Y107.103 E24.96544
G1 X80.47 Y106.25 E25.00747
G1 X81.039 Y105.047 E25.06943
G1 X81.442 Y104.325 E25.10794
G1 X90.886 Y87.971 E25.9873
G1 X91.217 Y87.416 E26.01739
G1 X91.713 Y86.662 E26.05942
G1 X92.274 Y85.954 E26.10148
G1 F1500 E19.60148
;MESH:nested geometry.stl
G0 F6000 X99.047 Y92.903
G0 X100.67 Y93.84
G0 X91.75 Y110
G0 X100.78 Y125.97
;TYPE:WALL-INNER
G1 F1500 E26.10148
G1 F1200 X119.22 Y125.97 E26.96012
G1 X128.441 Y110 E27.81881
G1 X119.22 Y94.03 E28.67749
G1 X100.78 Y94.03 E29.53614
G1 X91.559 Y110 E30.39483
G1 X100.78 Y125.97 E31.25351
G0 F6000 X101.011 Y125.57
;TYPE:WALL-OUTER
G1 F1200 X118.989 Y125.57 E32.09064
G1 X127.979 Y110 E32.92782
G1 X118.989 Y94.43 E33.765
G1 X101.011 Y94.43 E34.60213
G1 X92.021 Y110 E35.43931
G1 X101.011 Y125.57 E36.27649
G1 F1500 E29.77649
G0 F6000 X100.751 Y125.719
G0 X119.124 Y125.804
G0 X119.104 Y126.559
G0 X119.682 Y126.769
;TYPE:WALL-INNER
G1 F1500 E36.27649
G1 F1200 X100.318 Y126.769 E37.17816
G1 X90.636 Y110 E38.0798
G1 X100.318 Y93.231 E38.98144
G1 X119.682 Y93.231 E39.88311
G1 X129.364 Y110 E40.78475
G1 X119.682 Y126.769 E41.68639
G0 F6000 X119.913 Y127.169
;TYPE:WALL-OUTER
G1 F1200 X100.087 Y127.169 E42.60957
G1 X90.175 Y110 E43.53269
G1 X100.087 Y92.831 E44.45582
G1 X119.913 Y92.831 E45.379
G1 X129.825 Y110 E46.30212
G1 X119.913 Y127.169 E47.22525
G0 F6000 X119.642 Y126.758
G0 X119.457 Y126.379
;TYPE:SKIN
G1 F1200 X100.543 Y126.379 E48.10596
G1 X91.087 Y110 E48.98662
G1 X100.543 Y93.621 E49.86727
G1 X119.457 Y93.621 E50.74798
G1 X128.913 Y110 E51.62863
G1 X119.457 Y126.379 E52.50928
G0 F6000 X119.445 Y126.36
G1 F1200 X128.891 Y110 E53.38894
G1 X119.445 Y93.64 E54.26859
G1 X100.555 Y93.64 E55.14819
G1 X91.109 Y110 E56.02784
G1 X100.555 Y126.36 E56.90749
G1 X119.445 Y126.36 E57.78709
G0 F6000 X119.445 Y126.569
G1 F1500 E51.28709
G0 F6000 X119.445 Y126.659
G0 X103.088 Y126.559
G0 X103.088 Y124.705
G0 X103.088 Y124.036
G0 X103.088 Y122.162
G0 X103.088 Y121.972
;TYPE:WALL-INNER
G1 F1500 E57.78709
G1 F1200 X116.912 Y121.972 E58.43079
G1 X123.825 Y110 E59.07452
G1 X116.912 Y98.028 E59.71825
G1 X103.088 Y98.028 E60.36195
G1 X96.175 Y110 E61.00568
G1 X103.088 Y121.972 E61.64941
G0 F6000 X103.319 Y121.572
;TYPE:WALL-OUTER
G1 F1200 X116.681 Y121.572 E62.2716
G1 X123.363 Y110 E62.89382
G1 X116.681 Y98.428 E63.51604
G1 X103.319 Y98.428 E64.13824
G1 X96.637 Y110 E64.76046
G1 X103.319 Y121.572 E65.38268
G1 F1500 E58.88268
G0 F6000 X103.059 Y121.721
G0 X117.023 Y122.165
G0 X117.023 Y122.561
G0 X117.374 Y122.771
;TYPE:WALL-INNER
G1 F1500 E65.38268
G1 F1200 X102.626 Y122.771 E66.06941
G1 X95.252 Y110 E66.75609
G1 X102.626 Y97.229 E67.44277
G1 X117.374 Y97.229 E68.1295
G1 X124.748 Y110 E68.81618
G1 X117.374 Y122.771 E69.50286
G0 F6000 X117.605 Y123.171
;TYPE:WALL-OUTER
G1 F1200 X102.395 Y123.171 E70.21111
G1 X94.791 Y110 E70.91927
G1 X102.395 Y96.829 E71.62744
G1 X117.605 Y96.829 E72.33568
G1 X125.209 Y110 E73.04385
G1 X117.605 Y123.171 E73.75202
G0 F6000 X117.334 Y122.76
G0 X117.149 Y122.381
;TYPE:SKIN
G1 F1200 X102.851 Y122.381 E74.41779
G1 X95.703 Y110 E75.08349
G1 X102.851 Y97.619 E75.74918
G1 X117.149 Y97.619 E76.41496
G1 X124.297 Y110 E77.08065
G1 X117.149 Y122.381 E77.74634
G0 F6000 X117.137 Y122.362
G1 F1200 X124.275 Y110 E78.41104
G1 X117.137 Y97.638 E79.07573
G1 X102.863 Y97.638 E79.74039
G1 X95.725 Y110 E80.40508
G1 X102.863 Y122.362 E81.06978
G1 X117.137 Y122.362 E81.73444
G0 F6000 X117.137 Y122.571
G1 F1500 E75.23444
G0 F6000 X117.137 Y122.661
G0 X105.396 Y122.561
G0 X105.396 Y120.707
G0 X105.396 Y120.039
G0 X105.396 Y118.165
G0 X105.396 Y117.975
;TYPE:WALL-INNER
G1 F1500 E81.73444
G1 F1200 X114.604 Y117.975 E82.1632
G1 X119.209 Y110 E82.59201
G1 X114.604 Y102.025 E83.02082
G1 X105.396 Y102.025 E83.44959
G1 X100.791 Y110 E83.8784
G1 X105.396 Y117.975 E84.30721
G0 F6000 X105.627 Y117.575
;TYPE:WALL-OUTER
G1 F1200 X114.373 Y117.575 E84.71446
G1 X118.747 Y110 E85.12177
G1 X114.373 Y102.425 E85.52907
G1 X105.627 Y102.425 E85.93632
G1 X101.253 Y110 E86.34362
G1 X105.627 Y117.575 E86.75093
G1 F1500 E80.25093
G0 F6000 X105.367 Y117.724
G0 X114.715 Y118.168
G0 X114.715 Y118.564
G0 X115.066 Y118.774
;TYPE:WALL-INNER
G1 F1500 E86.75093
G1 F1200 X104.934 Y118.774 E87.22271
G1 X99.868 Y110 E87.69448
G1 X104.934 Y101.226 E88.16625
G1 X115.066 Y101.226 E88.63803
G1 X120.132 Y110 E89.1098
G1 X115.066 Y118.774 E89.58156
G0 F6000 X115.297 Y119.174
;TYPE:WALL-OUTER
G1 F1200 X104.703 Y119.174 E90.07487
G1 X99.407 Y110 E90.56812
G1 X104.703 Y100.826 E91.06137
G1 X115.297 Y100.826 E91.55467
G1 X120.593 Y110 E92.04792
G1 X115.297 Y119.174 E92.54117
G0 F6000 X115.026 Y118.763
G0 X114.841 Y118.384
;TYPE:SKIN
G1 F1200 X105.159 Y118.384 E92.992
G1 X100.319 Y110 E93.44278
G1 X105.159 Y101.616 E93.89356
G1 X114.841 Y101.616 E94.34439
G1 X119.681 Y110 E94.79517
G1 X114.841 Y118.384 E95.24594
G0 F6000 X114.829 Y118.365
G1 F1200 X119.659 Y110 E95.69572
G1 X114.829 Y101.635 E96.1455
G1 X105.171 Y101.635 E96.59522
G1 X100.341 Y110 E97.04499
G1 X105.171 Y118.365 E97.49477
G1 X114.829 Y118.365 E97.94449
G0 F6000 X114.829 Y118.574
G1 F1500 E91.44449
G0 F6000 X114.829 Y118.664
G0 X107.704 Y118.564
G0 X107.704 Y116.71
G0 X107.704 Y116.041
G0 X107.704 Y114.167
G0 X107.704 Y113.977
;TYPE:WALL-INNER
G1 F1500 E97.94449
G1 F1200 X112.296 Y113.977 E98.15831
G1 X114.593 Y110 E98.37217
G1 X112.296 Y106.023 E98.58602
G1 X107.704 Y106.023 E98.79984
G1 X105.407 Y110 E99.0137
G1 X107.704 Y113.977 E99.22755
G0 F6000 X107.935 Y113.577
;TYPE:WALL-OUTER
G1 F1200 X112.065 Y113.577 E99.41986
G1 X114.131 Y110 E99.61221
G1 X112.065 Y106.423 E99.80455
G1 X107.935 Y106.423 E99.99686
G1 X105.869 Y110 E100.18921
G1 X107.935 Y113.577 E100.38156
G1 F1500 E93.88156
G0 F6000 X107.675 Y113.726
G0 X112.408 Y114.17
G0 X112.408 Y114.566
G0 X112.758 Y114.776
;TYPE:WALL-INNER
G1 F1500 E100.38156
G1 F1200 X107.242 Y114.776 E100.63841
G1 X104.484 Y110 E100.89521
G1 X107.242 Y105.224 E101.15202
G1 X112.758 Y105.224 E101.40887
G1 X115.516 Y110 E101.66568
G1 X112.758 Y114.776 E101.92248
G0 F6000 X112.989 Y115.176
;TYPE:WALL-OUTER
G1 F1200 X107.011 Y115.176 E102.20085
G1 X104.023 Y110 E102.47914
G1 X107.011 Y104.824 E102.75743
G1 X112.989 Y104.824 E103.03579
G1 X115.977 Y110 E103.31409
G1 X112.989 Y115.176 E103.59238
G0 F6000 X112.718 Y114.765
G0 X112.533 Y114.386
;TYPE:SKIN
G1 F1200 X107.467 Y114.386 E103.82827
G1 X104.935 Y110 E104.06409
G1 X107.467 Y105.614 E104.29991
G1 X112.533 Y105.614 E104.53581
G1 X115.065 Y110 E104.77162
G1 X112.533 Y114.386 E105.00744
G0 F6000 X112.521 Y114.367
G1 F1200 X115.043 Y110 E105.24226
G1 X112.521 Y105.633 E105.47708
G1 X107.479 Y105.633 E105.71186
G1 X104.957 Y110 E105.94668
G1 X107.479 Y114.367 E106.1815
G1 X112.521 Y114.367 E106.41628
G0 F6000 X112.521 Y114.576
G1 F1500 E99.91628
;MESH:NONMESH
G0 F300 X112.521 Y114.576 Z0.56
G0 F6000 X112.521 Y114.666
G0 X107.136 Y114.959
G0 X106.201 Y115.5
G0 X98.695 Y119.831
G0 X97.774 Y120.364
G0 X100.78 Y125.97
;TIME_ELAPSED:130.941579
;LAYER:1
M106 S85
