;FLAVOR:Marlin
;TIME:1488
;Filament used: 0.896605m
;Layer height: 0.28
;MINX:86.784
;MINY:83.997
;MINZ:0.28
;MAXX:133.215
;MAXY:136.003
;MAXZ:30.101
;Generated with Cura_SteamEngine 4.8.0
M140 S60
M105
M190 S60
M104 S200
M105
M109 S200
M82 ;absolute extrusion mode
; Ender 3 Custom Start G-code
G92 E0 ; Reset Extruder
G28 ; Home all axes
G1 Z2.0 F3000 ; Move Z Axis up little to prevent scratching of Heat Bed
G1 X0.1 Y20 Z0.3 F5000.0 ; Move to start position
G1 X0.1 Y200.0 Z0.3 F1500.0 E15 ; Draw the first line
G1 X0.4 Y200.0 Z0.3 F5000.0 ; Move to side a little
G1 X0.4 Y20 Z0.3 F1500.0 E30 ; Draw the second line
G92 E0 ; Reset Extruder
G1 Z2.0 F3000 ; Move Z Axis up little to prevent scratching of Heat Bed
G1 X5 Y20 Z0.3 F5000.0 ; Move over to prevent blob squish
G92 E0
G92 E0
G1 F1500 E-6.5
;LAYER_COUNT:107
;LAYER:0
M107
G0 F6000 X90.017 Y87.344 Z0.28
;TYPE:SKIRT
G1 F1500 E0
G1 F1200 X90.129 Y87.232 E0.00738
G1 X90.82 Y86.598 E0.05104
G1 X91.562 Y86.024 E0.09472
G1 X92.351 Y85.517 E0.13839
G1 X93.179 Y85.078 E0.18203
G1 X94.043 Y84.711 E0.22574
G1 X94.934 Y84.419 E0.2694
G1 X95.847 Y84.205 E0.31307
G1 X96.775 Y84.068 E0.35675
G1 X97.536 Y84.016 E0.39227
G1 X97.921 Y84.006 E0.4102
G1 X98.463 Y84 E0.43544
G1 X106.645 Y83.999 E0.81643
G1 X107.8 Y84.004 E0.87021
G1 X108.269 Y84 E0.89205
G1 X112.018 Y84 E1.06662
G1 X113.403 Y83.997 E1.13111
G1 X121.548 Y84.001 E1.51038
G1 X122.25 Y84.011 E1.54307
G1 X123.186 Y84.064 E1.58672
G1 X124.114 Y84.197 E1.63037
G1 X125.028 Y84.409 E1.67406
G1 X125.921 Y84.697 E1.71775
G1 X126.785 Y85.061 E1.76141
G1 X127.616 Y85.497 E1.80511
G1 X128.406 Y86.002 E1.84877
G1 X129.15 Y86.572 E1.89241
G1 X129.906 Y87.266 E1.9402
G1 X130.018 Y87.379 E1.9476
G1 X130.649 Y88.073 E1.99128
G1 X131.219 Y88.818 E2.03496
G1 X131.723 Y89.609 E2.07863
G1 X132.158 Y90.44 E2.12231
G1 X132.521 Y91.304 E2.16595
G1 X132.809 Y92.197 E2.20964
G1 X133.019 Y93.111 E2.25331
G1 X133.152 Y94.04 E2.29701
G1 X133.198 Y94.719 E2.32869
G1 X133.209 Y95.113 E2.34705
G1 X133.215 Y95.636 E2.3714
G1 X133.214 Y124.3 E3.70612
G1 X133.204 Y125.029 E3.74007
G1 X133.151 Y125.965 E3.78372
G1 X133.019 Y126.894 E3.82741
G1 X132.808 Y127.808 E3.87109
G1 X132.52 Y128.7 E3.91474
G1 X132.157 Y129.565 E3.95842
G1 X131.721 Y130.396 E4.00212
G1 X131.217 Y131.186 E4.04575
G1 X130.646 Y131.931 E4.08946
G1 X129.983 Y132.656 E4.13521
G1 X129.871 Y132.768 E4.14258
G1 X129.18 Y133.402 E4.18625
G1 X128.438 Y133.976 E4.22993
G1 X127.649 Y134.483 E4.2736
G1 X126.821 Y134.922 E4.31724
G1 X125.957 Y135.289 E4.36095
G1 X125.066 Y135.581 E4.40461
G1 X124.153 Y135.795 E4.44828
G1 X123.225 Y135.932 E4.49196
G1 X122.464 Y135.984 E4.52747
G1 X122.079 Y135.994 E4.54541
G1 X121.537 Y136 E4.57065
G1 X113.355 Y136.001 E4.95163
G1 X112.2 Y135.996 E5.00542
G1 X111.731 Y136 E5.02726
G1 X107.982 Y136 E5.20183
G1 X106.597 Y136.003 E5.26632
G1 X98.451 Y135.999 E5.64563
G1 X97.749 Y135.989 E5.67832
G1 X96.813 Y135.936 E5.72197
G1 X95.885 Y135.803 E5.76563
G1 X94.971 Y135.591 E5.80932
G1 X94.078 Y135.303 E5.85301
G1 X93.214 Y134.939 E5.89666
G1 X92.383 Y134.503 E5.94036
G1 X91.593 Y133.998 E5.98402
G1 X90.849 Y133.428 E6.02766
G1 X90.128 Y132.768 E6.07318
G1 X90.016 Y132.656 E6.08055
G1 X89.382 Y131.965 E6.12422
G1 X88.808 Y131.223 E6.1679
G1 X88.301 Y130.434 E6.21157
G1 X87.862 Y129.606 E6.25521
G1 X87.495 Y128.742 E6.29892
G1 X87.203 Y127.851 E6.34258
G1 X86.989 Y126.938 E6.38625
G1 X86.852 Y126.01 E6.42993
G1 X86.8 Y125.249 E6.46545
G1 X86.79 Y124.852 E6.48394
G1 X86.784 Y124.278 E6.51067
G1 X86.786 Y95.643 E7.84403
G1 X86.796 Y94.961 E7.87579
G1 X86.85 Y94.024 E7.91949
G1 X86.983 Y93.096 E7.96315
G1 X87.195 Y92.182 E8.00684
G1 X87.484 Y91.29 E8.0505
G1 X87.848 Y90.426 E8.09415
G1 X88.284 Y89.596 E8.13781
G1 X88.789 Y88.805 E8.18151
G1 X89.36 Y88.061 E8.22518
G1 X90.017 Y87.344 E8.27046
G0 F6000 X90.3 Y87.627
G1 F1200 X90.412 Y87.515 E8.27784
G1 X91.09 Y86.893 E8.32068
G1 X91.82 Y86.332 E8.36355
G1 X92.596 Y85.836 E8.40644
G1 X93.412 Y85.41 E8.4493
G1 X94.262 Y85.056 E8.49217
G1 X95.14 Y84.778 E8.53506
G1 X96.038 Y84.576 E8.57792
G1 X96.951 Y84.453 E8.62081
G1 X97.549 Y84.416 E8.64871
G1 X97.925 Y84.406 E8.66623
G1 X98.463 Y84.4 E8.69128
G1 X106.644 Y84.399 E9.07222
G1 X107.802 Y84.404 E9.12614
G1 X108.272 Y84.4 E9.14803
G1 X112.019 Y84.4 E9.32251
G1 X113.403 Y84.397 E9.38695
G1 X121.542 Y84.401 E9.76594
G1 X122.244 Y84.411 E9.79863
G1 X123.163 Y84.464 E9.84149
G1 X124.074 Y84.597 E9.88436
G1 X124.97 Y84.808 E9.92722
G1 X125.845 Y85.096 E9.97012
G1 X126.691 Y85.459 E10.01298
G1 X127.502 Y85.894 E10.05584
G1 X128.273 Y86.398 E10.09873
G1 X128.997 Y86.966 E10.14158
G1 X129.622 Y87.548 E10.18134
G1 X129.734 Y87.661 E10.18875
G1 X130.353 Y88.342 E10.2316
G1 X130.91 Y89.075 E10.27447
G1 X131.402 Y89.853 E10.31734
G1 X131.825 Y90.671 E10.36022
G1 X132.175 Y91.523 E10.40311
G1 X132.45 Y92.401 E10.44595
G1 X132.647 Y93.301 E10.48885
G1 X132.766 Y94.214 E10.53172
G1 X132.798 Y94.734 E10.55598
G1 X132.809 Y95.118 E10.57387
G1 X132.815 Y95.636 E10.59799
G1 X132.814 Y124.294 E11.93243
G1 X132.804 Y125.023 E11.96637
G1 X132.751 Y125.943 E12.00928
G1 X132.619 Y126.854 E12.05215
G1 X132.409 Y127.75 E12.095
G1 X132.121 Y128.624 E12.13785
G1 X131.758 Y129.471 E12.18076
G1 X131.324 Y130.282 E12.22359
G1 X130.82 Y131.053 E12.26648
G1 X130.252 Y131.778 E12.30937
G1 X129.7 Y132.373 E12.34716
G1 X129.588 Y132.485 E12.35453
G1 X128.91 Y133.107 E12.39738
G1 X128.18 Y133.668 E12.44025
G1 X127.404 Y134.164 E12.48313
G1 X126.588 Y134.59 E12.52599
G1 X125.738 Y134.944 E12.56887
G1 X124.86 Y135.222 E12.61175
G1 X123.962 Y135.424 E12.65461
G1 X123.049 Y135.547 E12.69751
G1 X122.451 Y135.584 E12.72541
G1 X122.075 Y135.594 E12.74292
G1 X121.537 Y135.6 E12.76798
G1 X113.356 Y135.601 E13.14892
G1 X112.198 Y135.596 E13.20284
G1 X111.728 Y135.6 E13.22473
G1 X107.981 Y135.6 E13.3992
G1 X106.597 Y135.603 E13.46365
G1 X98.457 Y135.599 E13.84268
G1 X97.755 Y135.589 E13.87537
G1 X96.836 Y135.536 E13.91823
G1 X95.925 Y135.403 E13.9611
G1 X95.029 Y135.192 E14.00397
G1 X94.154 Y134.904 E14.04686
G1 X93.308 Y134.541 E14.08973
G1 X92.497 Y134.106 E14.13258
G1 X91.726 Y133.602 E14.17547
G1 X91.002 Y133.034 E14.21832
G1 X90.411 Y132.485 E14.25588
G1 X90.299 Y132.373 E14.26326
G1 X89.677 Y131.695 E14.3061
G1 X89.116 Y130.965 E14.34897
G1 X88.62 Y130.189 E14.39185
G1 X88.194 Y129.373 E14.43472
G1 X87.84 Y128.523 E14.47759
G1 X87.562 Y127.645 E14.52048
G1 X87.36 Y126.747 E14.56333
G1 X87.237 Y125.834 E14.60623
G1 X87.2 Y125.236 E14.63413
G1 X87.19 Y124.847 E14.65225
G1 X87.184 Y124.278 E14.67875
G1 X87.186 Y95.649 E16.01183
G1 X87.196 Y94.967 E16.04359
G1 X87.25 Y94.047 E16.08651
G1 X87.383 Y93.137 E16.12933
G1 X87.594 Y92.24 E16.17224
G1 X87.883 Y91.366 E16.2151
G1 X88.246 Y90.52 E16.25797
G1 X88.681 Y89.709 E16.30082
G1 X89.185 Y88.939 E16.34367
G1 X89.754 Y88.215 E16.38655
G1 X90.3 Y87.627 E16.42391
G0 F6000 X90.583 Y87.91
G1 F1200 X90.695 Y87.798 E16.43129
G1 X91.361 Y87.188 E16.47334
G1 X92.078 Y86.639 E16.51539
G1 X92.842 Y86.157 E16.55746
G1 X93.645 Y85.743 E16.59952
G1 X94.481 Y85.403 E16.64155
G1 X95.344 Y85.137 E16.6836
G1 X96.227 Y84.949 E16.72564
G1 X97.563 Y84.816 E16.78815
G1 X97.93 Y84.806 E16.80525
G1 X98.463 Y84.8 E16.83007
G1 X106.642 Y84.799 E17.21092
G1 X107.803 Y84.804 E17.26498
G1 X108.275 Y84.8 E17.28696
G1 X112.019 Y84.8 E17.4613
G1 X113.403 Y84.797 E17.52574
G1 X121.536 Y84.801 E17.90445
G1 X122.238 Y84.811 E17.93714
G1 X123.14 Y84.864 E17.97921
G1 X124.033 Y84.996 E18.02125
G1 X124.911 Y85.207 E18.06329
G1 X125.767 Y85.495 E18.10535
G1 X126.595 Y85.857 E18.14743
G1 X127.387 Y86.291 E18.18948
G1 X128.137 Y86.794 E18.23153
G1 X128.84 Y87.36 E18.27355
G1 X129.337 Y87.83 E18.30541
G1 X129.449 Y87.943 E18.31281
G1 X130.056 Y88.612 E18.35488
G1 X130.601 Y89.332 E18.39693
G1 X131.081 Y90.097 E18.43898
G1 X131.491 Y90.902 E18.48104
G1 X131.828 Y91.74 E18.5231
G1 X132.089 Y92.604 E18.56513
G1 X132.273 Y93.488 E18.60717
G1 X132.398 Y94.748 E18.66613
G1 X132.409 Y95.124 E18.68365
G1 X132.415 Y95.636 E18.70749
G1 X132.414 Y124.289 E20.04169
G1 X132.404 Y125.018 E20.07564
G1 X132.352 Y125.919 E20.11767
G1 X132.22 Y126.813 E20.15975
G1 X132.009 Y127.691 E20.20179
G1 X131.722 Y128.547 E20.24383
G1 X131.36 Y129.375 E20.28591
G1 X130.927 Y130.167 E20.32794
G1 X130.425 Y130.918 E20.37001
G1 X129.858 Y131.621 E20.41206
G1 X129.417 Y132.09 E20.44204
G1 X129.305 Y132.202 E20.44941
G1 X128.639 Y132.812 E20.49147
G1 X127.922 Y133.361 E20.53352
G1 X127.158 Y133.843 E20.57558
G1 X126.355 Y134.257 E20.61765
G1 X125.519 Y134.597 E20.65967
G1 X124.656 Y134.863 E20.70172
G1 X123.773 Y135.051 E20.74376
G1 X122.437 Y135.184 E20.80628
G1 X122.07 Y135.194 E20.82337
G1 X121.537 Y135.2 E20.84819
G1 X113.358 Y135.201 E21.22904
G1 X112.197 Y135.196 E21.2831
G1 X111.725 Y135.2 E21.30508
G1 X107.981 Y135.2 E21.47942
G1 X106.597 Y135.203 E21.54386
G1 X98.463 Y135.199 E21.92262
G1 X97.761 Y135.189 E21.95531
G1 X96.859 Y135.136 E21.99738
G1 X95.966 Y135.004 E22.03942
G1 X95.088 Y134.793 E22.08146
G1 X94.232 Y134.505 E22.12352
G1 X93.404 Y134.143 E22.1656
G1 X92.612 Y133.709 E22.20765
G1 X91.862 Y133.206 E22.2497
G1 X91.159 Y132.64 E22.29172
G1 X90.694 Y132.202 E22.32147
G1 X90.582 Y132.09 E22.32885
G1 X89.972 Y131.424 E22.3709
G1 X89.423 Y130.707 E22.41295
G1 X88.941 Y129.943 E22.45501
G1 X88.527 Y129.14 E22.49708
G1 X88.187 Y128.304 E22.5391
G1 X87.921 Y127.441 E22.58115
G1 X87.733 Y126.558 E22.62319
G1 X87.6 Y125.222 E22.68571
G1 X87.59 Y124.843 E22.70336
G1 X87.584 Y124.278 E22.72967
G1 X87.586 Y95.654 E24.06253
G1 X87.596 Y94.972 E24.09429
G1 X87.649 Y94.071 E24.13631
G1 X87.782 Y93.178 E24.17835
G1 X87.993 Y92.3 E24.2204
G1 X88.281 Y91.444 E24.26246
G1 X88.644 Y90.617 E24.30451
G1 X89.078 Y89.825 E24.34656
G1 X89.581 Y89.075 E24.38861
G1 X90.148 Y88.372 E24.43067
G1 X90.583 Y87.91 E24.46022
G0 F6000 X100.385 Y97.6
G1 F1200 X100.391 Y97.6 E24.4605
G1 X100.39 Y122.4 E25.61529
G1 X100.384 Y122.4 E25.61557
G1 X100.385 Y97.6 E26.77036
G0 F6000 X99.985 Y97.2
G1 F1200 X100.791 Y97.2 E26.80789
G1 X100.79 Y122.8 E27.99993
G1 X99.984 Y122.8 E28.03746
G1 X99.985 Y97.2 E29.22951
G0 F6000 X99.585 Y96.8
G1 F1200 X101.191 Y96.8 E29.30429
G1 X101.19 Y123.2 E30.53358
G1 X99.584 Y123.2 E30.60837
G1 X99.585 Y96.8 E31.83766
G0 F6000 X99.185 Y96.4
G1 F1200 X101.591 Y96.4 E31.94969
G1 X101.59 Y123.6 E33.21624
G1 X99.184 Y123.6 E33.32827
G1 X99.185 Y96.4 E34.59482
G0 F6000 X98.785 Y96
G1 F1200 X101.991 Y96 E34.7441
G1 X101.99 Y124 E36.0479
G1 X98.784 Y124 E36.19719
G1 X98.785 Y96 E37.50098
G0 F6000 X98.385 Y95.6
G1 F1200 X102.391 Y95.6 E37.68752
G1 X102.39 Y124.4 E39.02857
G1 X98.384 Y124.4 E39.2151
G1 X98.385 Y95.6 E40.55615
G0 F6000 X97.985 Y95.2
G1 F1200 X102.791 Y95.2 E40.77994
G1 X102.79 Y124.8 E42.15824
G1 X97.984 Y124.8 E42.38203
G1 X97.985 Y95.2 E43.76033
G1 F1500 E37.26033
G0 F6000 X102.338 Y94.347
G0 X117.663 Y94.347
G0 X117.675 Y95.2
G0 X117.21 Y95.2
G1 F1500 E43.76033
G1 F1200 X122.015 Y95.2 E43.98407
G1 X122.015 Y124.8 E45.36237
G1 X117.209 Y124.8 E45.58616
G1 X117.21 Y95.2 E46.96446
G0 F6000 X117.61 Y95.6
G1 F1200 X121.615 Y95.6 E47.15095
G1 X121.615 Y124.4 E48.49199
G1 X117.609 Y124.4 E48.67853
G1 X117.61 Y95.6 E50.01958
G0 F6000 X118.01 Y96
G1 F1200 X121.215 Y96 E50.16882
G1 X121.215 Y124 E51.47261
G1 X118.009 Y124 E51.6219
G1 X118.01 Y96 E52.9257
G0 F6000 X118.41 Y96.4
G1 F1200 X120.815 Y96.4 E53.03768
G1 X120.815 Y123.6 E54.30423
G1 X118.409 Y123.6 E54.41626
G1 X118.41 Y96.4 E55.68281
G0 F6000 X118.81 Y96.8
G1 F1200 X120.415 Y96.8 E55.75754
G1 X120.415 Y123.2 E56.98684
G1 X118.809 Y123.2 E57.06162
G1 X118.81 Y96.8 E58.29092
G0 F6000 X119.21 Y97.2
G1 F1200 X120.015 Y97.2 E58.3284
G1 X120.015 Y122.8 E59.52044
G1 X119.209 Y122.8 E59.55797
G1 X119.21 Y97.2 E60.75002
G0 F6000 X119.61 Y97.6
G1 F1200 X119.615 Y97.6 E60.75025
G1 X119.615 Y122.4 E61.90504
G1 X119.609 Y122.4 E61.90532
G1 X119.61 Y97.6 E63.06011
G1 F1500 E56.56011
G0 F6000 X117.675 Y95.2
G0 X116.81 Y95.2
;TYPE:SUPPORT-INTERFACE
G1 F1500 E63.06011
G1 F1200 X116.809 Y124.8 E64.43841
G1 X113.716 Y124.8 E64.58244
G1 X113.716 Y95.2 E65.96074
G1 X116.81 Y95.2 E66.10481
G1 F1500 E59.60481
G0 F6000 X116.81 Y94.335
G0 X112.959 Y94.342
G0 X112.776 Y94.775
G0 X107.145 Y95.391
G0 X106.284 Y95.2
G1 F1500 E66.10481
G1 F1200 X106.284 Y124.8 E67.48311
G1 X103.19 Y124.8 E67.62718
G1 X103.191 Y95.2 E69.00548
G1 X106.284 Y95.2 E69.1495
G0 F6000 X106.083 Y95.901
G1 F1200 X105.582 Y95.4 E69.18249
G0 F6000 X104.852 Y95.4
G1 F1200 X103.39 Y96.862 E69.27877
G0 F6000 X103.39 Y96.602
G1 F1200 X106.083 Y99.295 E69.4561
G0 F6000 X106.082 Y100.957
G1 F1200 X103.39 Y103.65 E69.63341
G0 F6000 X103.39 Y103.39
G1 F1200 X106.083 Y106.083 E69.81075
G0 F6000 X106.082 Y107.746
G1 F1200 X103.39 Y110.438 E69.98802
G0 F6000 X103.39 Y110.178
G1 F1200 X106.084 Y112.872 E70.16543
G0 F6000 X106.083 Y114.533
G1 F1200 X103.39 Y117.226 E70.34276
G0 F6000 X103.39 Y116.966
G1 F1200 X106.084 Y119.66 E70.52017
G0 F6000 X106.083 Y121.321
G1 F1200 X103.39 Y124.015 E70.69754
G0 F6000 X103.39 Y123.755
G1 F1200 X104.234 Y124.599 E70.75312
G0 F6000 X106.084 Y123.054
G1 F1200 X103.39 Y120.36 E70.93052
G0 F6000 X103.39 Y120.621
G1 F1200 X106.083 Y117.927 E71.1079
G0 F6000 X106.084 Y116.266
G1 F1200 X103.39 Y113.572 E71.2853
G0 F6000 X103.39 Y113.832
G1 F1200 X106.083 Y111.139 E71.46264
G0 F6000 X106.083 Y109.477
G1 F1200 X103.39 Y106.784 E71.63998
G0 F6000 X103.39 Y107.044
G1 F1200 X106.082 Y104.351 E71.81728
G0 F6000 X106.083 Y102.689
G1 F1200 X103.39 Y99.996 E71.99462
G0 F6000 X103.39 Y100.256
G1 F1200 X106.082 Y97.563 E72.17193
G1 F1500 E65.67193
G0 F6000 X107.149 Y97.563
G0 X112.851 Y96.944
G0 X113.914 Y96.944
G1 F1500 E72.17193
G1 F1200 X116.608 Y99.638 E72.34933
G0 F6000 X116.608 Y100.614
G1 F1200 X113.915 Y103.307 E72.52667
G0 F6000 X113.914 Y103.732
G1 F1200 X116.608 Y106.426 E72.70408
G0 F6000 X116.608 Y107.402
G1 F1200 X113.916 Y110.095 E72.88138
G0 F6000 X113.915 Y110.521
G1 F1200 X116.608 Y113.214 E73.05872
G0 F6000 X116.608 Y114.19
G1 F1200 X113.916 Y116.883 E73.23603
G0 F6000 X113.915 Y117.309
G1 F1200 X116.608 Y120.003 E73.4134
G0 F6000 X116.608 Y120.978
G1 F1200 X113.916 Y123.671 E73.5907
G0 F6000 X113.915 Y124.097
G1 F1200 X114.416 Y124.599 E73.62373
G0 F6000 X116.382 Y124.599
G1 F1200 X116.608 Y124.373 E73.63861
G0 F6000 X116.608 Y123.397
G1 F1200 X113.915 Y120.703 E73.81598
G0 F6000 X113.916 Y120.277
G1 F1200 X116.608 Y117.584 E73.99329
G0 F6000 X116.608 Y116.608
G1 F1200 X113.915 Y113.915 E74.17063
G0 F6000 X113.916 Y113.489
G1 F1200 X116.608 Y110.796 E74.34793
G0 F6000 X116.608 Y109.82
G1 F1200 X113.914 Y107.126 E74.52534
G0 F6000 X113.915 Y106.701
G1 F1200 X116.608 Y104.008 E74.70267
G0 F6000 X116.608 Y103.032
G1 F1200 X113.914 Y100.338 E74.88008
G0 F6000 X113.915 Y99.913
G1 F1200 X116.608 Y97.22 E75.05742
G0 F6000 X116.608 Y96.244
G1 F1200 X115.764 Y95.4 E75.113
G0 F6000 X115.034 Y95.4
G1 F1200 X113.915 Y96.519 E75.18668
G1 F1500 E68.68668
;MESH:hightolcylinder.stl
G0 F6000 X111.722 Y96.517
G0 X111.659 Y124.618
G0 X108.298 Y124.66
G0 X108.158 Y124.8
;TYPE:WALL-OUTER
G1 F1500 E75.18668
G1 F1200 X108.159 Y95.2 E76.56498
G1 X111.842 Y95.2 E76.73648
G1 X111.841 Y124.8 E78.11478
G1 X108.158 Y124.8 E78.28628
G0 F6000 X108.548 Y124.41
;TYPE:SKIN
G1 F1200 X108.549 Y95.59 E79.62826
G1 X111.452 Y95.59 E79.76343
G1 X111.451 Y124.41 E81.10541
G1 X108.548 Y124.41 E81.24059
G0 F6000 X108.975 Y124.249
G1 F1200 X108.708 Y123.981 E81.2582
G0 F6000 X108.708 Y123.416
G1 F1200 X109.541 Y124.249 E81.31306
G0 F6000 X110.107 Y124.249
G1 F1200 X108.708 Y122.85 E81.40518
