;FLAVOR:Marlin
;TIME:1654
;Filament used: 1.33975m
;Layer height: 0.2
;MINX:92.2
;MINY:92.2
;MINZ:0.2
;MAXX:127.8
;MAXY:127.8
;MAXZ:20
;Generated with Cura_SteamEngine 4.8.0
M140 S60
M105
M190 S60
M104 S200
M105
M109 S200
M82 ;absolute extrusion mode
; Ender 3 Custom Start G-code
G92 E0 ; Reset Extruder
G28 ; Home all axes
G1 Z2.0 F3000 ; Move Z Axis up little to prevent scratching of Heat Bed
G1 X0.1 Y20 Z0.3 F5000.0 ; Move to start position
G1 X0.1 Y200.0 Z0.3 F1500.0 E15 ; Draw the first line
G1 X0.4 Y200.0 Z0.3 F5000.0 ; Move to side a little
G1 X0.4 Y20 Z0.3 F1500.0 E30 ; Draw the second line
G92 E0 ; Reset Extruder
G1 Z2.0 F3000 ; Move Z Axis up little to prevent scratching of Heat Bed
G1 X5 Y20 Z0.3 F5000.0 ; Move over to prevent blob squish
G92 E0
G92 E0
G1 F1500 E-6.5
;LAYER_COUNT:100
;LAYER:0
M107
G0 F6000 X94.485 Y94.602 Z0.2
;TYPE:SKIRT
G1 F1500 E0
G1 F1200 X94.602 Y94.485 E0.0055
G1 X95.188 Y93.955 E0.03178
G1 X95.824 Y93.488 E0.05803
G1 X96.504 Y93.087 E0.08428
G1 X97.222 Y92.757 E0.11057
G1 X97.969 Y92.502 E0.13682
G1 X98.738 Y92.323 E0.16308
G1 X99.522 Y92.223 E0.18937
G1 X100.117 Y92.2 E0.20917
G1 X119.883 Y92.2 E0.86659
G1 X120.672 Y92.24 E0.89287
G1 X121.452 Y92.359 E0.91911
G1 X122.217 Y92.557 E0.94539
G1 X122.957 Y92.831 E0.97164
G1 X123.666 Y93.179 E0.99791
G1 X124.337 Y93.597 E1.0242
G1 X124.961 Y94.08 E1.05045
G1 X125.398 Y94.485 E1.07026
G1 X125.515 Y94.602 E1.07577
G1 X126.045 Y95.188 E1.10205
G1 X126.512 Y95.824 E1.12829
G1 X126.913 Y96.504 E1.15455
G1 X127.243 Y97.222 E1.18083
G1 X127.498 Y97.969 E1.20708
G1 X127.677 Y98.738 E1.23334
G1 X127.777 Y99.522 E1.25963
G1 X127.8 Y100.117 E1.27943
G1 X127.8 Y119.883 E1.93685
G1 X127.76 Y120.672 E1.96313
G1 X127.641 Y121.452 E1.98937
G1 X127.443 Y122.217 E2.01565
G1 X127.169 Y122.957 E2.0419
G1 X126.821 Y123.666 E2.06817
G1 X126.403 Y124.337 E2.09446
G1 X125.92 Y124.961 E2.12071
G1 X125.515 Y125.398 E2.14053
G1 X125.398 Y125.515 E2.14603
G1 X124.812 Y126.045 E2.17231
G1 X124.176 Y126.512 E2.19855
G1 X123.496 Y126.913 E2.22481
G1 X122.778 Y127.243 E2.25109
G1 X122.031 Y127.498 E2.27734
G1 X121.262 Y127.677 E2.3036
G1 X120.478 Y127.777 E2.32989
G1 X119.883 Y127.8 E2.3497
G1 X100.117 Y127.8 E3.00712
G1 X99.328 Y127.76 E3.03339
G1 X98.548 Y127.641 E3.05964
G1 X97.783 Y127.443 E3.08592
G1 X97.043 Y127.169 E3.11216
G1 X96.334 Y126.821 E3.13843
G1 X95.663 Y126.403 E3.16473
G1 X95.039 Y125.92 E3.19097
G1 X94.602 Y125.515 E3.21079
G1 X94.485 Y125.398 E3.21629
G1 X93.955 Y124.812 E3.24257
G1 X93.488 Y124.176 E3.26881
G1 X93.087 Y123.496 E3.29507
G1 X92.757 Y122.778 E3.32135
G1 X92.502 Y122.031 E3.34761
G1 X92.323 Y121.262 E3.37387
G1 X92.223 Y120.478 E3.40015
G1 X92.2 Y119.883 E3.41996
G1 X92.2 Y100.117 E4.07738
G1 X92.24 Y99.328 E4.10365
G1 X92.359 Y98.548 E4.1299
G1 X92.557 Y97.783 E4.15618
G1 X92.831 Y97.043 E4.18243
G1 X93.179 Y96.334 E4.20869
G1 X93.597 Y95.663 E4.23499
G1 X94.08 Y95.039 E4.26123
G1 X94.485 Y94.602 E4.28105
G0 F6000 X94.767 Y94.884
G1 F1200 X94.884 Y94.767 E4.28655
G1 X95.456 Y94.253 E4.31213
G1 X96.078 Y93.8 E4.33772
G1 X96.743 Y93.414 E4.3633
G1 X97.445 Y93.099 E4.38889
G1 X98.176 Y92.859 E4.41448
G1 X98.927 Y92.696 E4.44004
G1 X99.692 Y92.612 E4.46564
G1 X100.117 Y92.6 E4.47978
G1 X119.883 Y92.6 E5.1372
G1 X120.651 Y92.64 E5.16278
G1 X121.411 Y92.759 E5.18836
G1 X122.154 Y92.957 E5.21394
G1 X122.873 Y93.231 E5.23953
G1 X123.559 Y93.578 E5.2651
G1 X124.206 Y93.994 E5.29068
G1 X124.806 Y94.475 E5.31626
G1 X125.116 Y94.767 E5.33042
G1 X125.233 Y94.884 E5.33593
G1 X125.747 Y95.456 E5.3615
G1 X126.2 Y96.078 E5.3871
G1 X126.586 Y96.743 E5.41267
G1 X126.901 Y97.445 E5.43826
G1 X127.141 Y98.176 E5.46385
G1 X127.304 Y98.927 E5.48941
G1 X127.388 Y99.692 E5.51501
G1 X127.4 Y100.117 E5.52915
G1 X127.4 Y119.883 E6.18657
G1 X127.36 Y120.651 E6.21215
G1 X127.241 Y121.411 E6.23773
G1 X127.043 Y122.154 E6.26331
G1 X126.769 Y122.873 E6.2889
G1 X126.422 Y123.559 E6.31447
G1 X126.006 Y124.206 E6.34005
G1 X125.525 Y124.806 E6.36563
G1 X125.233 Y125.116 E6.37979
G1 X125.116 Y125.233 E6.3853
G1 X124.544 Y125.747 E6.41088
G1 X123.922 Y126.2 E6.43647
G1 X123.257 Y126.586 E6.46204
G1 X122.555 Y126.901 E6.48763
G1 X121.824 Y127.141 E6.51322
G1 X121.073 Y127.304 E6.53878
G1 X120.308 Y127.388 E6.56438
G1 X119.883 Y127.4 E6.57852
G1 X100.117 Y127.4 E7.23594
G1 X99.349 Y127.36 E7.26152
G1 X98.589 Y127.241 E7.28711
G1 X97.846 Y127.043 E7.31268
G1 X97.127 Y126.769 E7.33827
G1 X96.441 Y126.422 E7.36384
G1 X95.794 Y126.006 E7.38942
G1 X95.194 Y125.525 E7.415
G1 X94.884 Y125.233 E7.42917
G1 X94.767 Y125.116 E7.43467
G1 X94.253 Y124.544 E7.46025
G1 X93.8 Y123.922 E7.48584
G1 X93.414 Y123.257 E7.51141
G1 X93.099 Y122.555 E7.53701
G1 X92.859 Y121.824 E7.5626
G1 X92.696 Y121.073 E7.58816
G1 X92.612 Y120.308 E7.61375
G1 X92.6 Y119.883 E7.62789
G1 X92.6 Y100.117 E8.28531
G1 X92.64 Y99.349 E8.31089
G1 X92.759 Y98.589 E8.33648
G1 X92.957 Y97.846 E8.36205
G1 X93.231 Y97.127 E8.38764
G1 X93.578 Y96.441 E8.41321
G1 X93.994 Y95.794 E8.4388
G1 X94.475 Y95.194 E8.46437
G1 X94.767 Y94.884 E8.47854
G0 F6000 X95.05 Y95.167
G1 F1200 X95.167 Y95.05 E8.48404
G1 X95.724 Y94.55 E8.50894
G1 X96.33 Y94.113 E8.53379
G1 X96.98 Y93.742 E8.55868
G1 X97.666 Y93.443 E8.58357
G1 X98.38 Y93.219 E8.60846
G1 X99.113 Y93.072 E8.63332
G1 X100.117 Y93 E8.6668
G1 X119.883 Y93 E9.32422
G1 X120.63 Y93.04 E9.3491
G1 X121.368 Y93.159 E9.37397
G1 X122.09 Y93.357 E9.39887
G1 X122.786 Y93.63 E9.42373
G1 X123.449 Y93.977 E9.44862
G1 X124.072 Y94.392 E9.47352
G1 X124.833 Y95.05 E9.50698
G1 X124.95 Y95.167 E9.51248
G1 X125.45 Y95.724 E9.53738
G1 X125.887 Y96.33 E9.56223
G1 X126.258 Y96.98 E9.58712
G1 X126.557 Y97.666 E9.61201
G1 X126.781 Y98.38 E9.6369
G1 X126.928 Y99.113 E9.66176
G1 X127 Y100.117 E9.69524
G1 X127 Y119.883 E10.35266
G1 X126.96 Y120.63 E10.37754
G1 X126.841 Y121.368 E10.40241
G1 X126.643 Y122.09 E10.42731
G1 X126.37 Y122.786 E10.45217
G1 X126.023 Y123.449 E10.47706
G1 X125.608 Y124.072 E10.50196
G1 X124.95 Y124.833 E10.53542
G1 X124.833 Y124.95 E10.54092
G1 X124.276 Y125.45 E10.56582
G1 X123.67 Y125.887 E10.59067
G1 X123.02 Y126.258 E10.61556
G1 X122.334 Y126.557 E10.64045
G1 X121.62 Y126.781 E10.66534
G1 X120.887 Y126.928 E10.6902
G1 X119.883 Y127 E10.72368
G1 X100.117 Y127 E11.3811
G1 X99.37 Y126.96 E11.40598
G1 X98.632 Y126.841 E11.43085
G1 X97.91 Y126.643 E11.45575
G1 X97.214 Y126.37 E11.48061
G1 X96.551 Y126.023 E11.5055
G1 X95.928 Y125.608 E11.5304
G1 X95.167 Y124.95 E11.56386
G1 X95.05 Y124.833 E11.56936
G1 X94.55 Y124.276 E11.59426
G1 X94.113 Y123.67 E11.61911
G1 X93.742 Y123.02 E11.644
G1 X93.443 Y122.334 E11.66889
G1 X93.219 Y121.62 E11.69378
G1 X93.072 Y120.887 E11.71865
G1 X93 Y119.883 E11.75212
G1 X93 Y100.117 E12.40954
G1 X93.04 Y99.37 E12.43443
G1 X93.159 Y98.632 E12.45929
G1 X93.357 Y97.91 E12.48419
G1 X93.63 Y97.214 E12.50905
G1 X93.977 Y96.551 E12.53394
G1 X94.392 Y95.928 E12.55884
G1 X95.05 Y95.167 E12.5923
G0 F6000 X95.333 Y95.45
G1 F1200 X95.45 Y95.333 E12.59781
G1 X95.991 Y94.849 E12.62195
G1 X96.582 Y94.426 E12.64612
G1 X97.216 Y94.072 E12.67027
G1 X97.885 Y93.789 E12.69443
G1 X98.581 Y93.581 E12.71859
G1 X99.296 Y93.451 E12.74276
G1 X100.117 Y93.4 E12.77012
G1 X119.883 Y93.4 E13.42754
G1 X120.608 Y93.44 E13.45169
G1 X121.325 Y93.559 E13.47587
G1 X122.024 Y93.757 E13.50003
G1 X122.697 Y94.03 E13.52419
G1 X123.336 Y94.375 E13.54834
G1 X123.933 Y94.789 E13.5725
G1 X124.55 Y95.333 E13.59986
G1 X124.667 Y95.45 E13.60537
G1 X125.151 Y95.991 E13.62951
G1 X125.574 Y96.582 E13.65368
G1 X125.928 Y97.216 E13.67783
G1 X126.211 Y97.885 E13.70199
G1 X126.419 Y98.581 E13.72615
G1 X126.549 Y99.296 E13.75033
G1 X126.6 Y100.117 E13.77768
G1 X126.6 Y119.883 E14.4351
G1 X126.56 Y120.608 E14.45925
G1 X126.441 Y121.325 E14.48343
G1 X126.243 Y122.024 E14.50759
G1 X125.97 Y122.697 E14.53175
G1 X125.625 Y123.336 E14.5559
G1 X125.211 Y123.933 E14.58006
G1 X124.667 Y124.55 E14.60742
G1 X124.55 Y124.667 E14.61293
G1 X124.009 Y125.151 E14.63707
G1 X123.418 Y125.574 E14.66124
G1 X122.784 Y125.928 E14.68539
G1 X122.115 Y126.211 E14.70955
G1 X121.419 Y126.419 E14.73371
G1 X120.704 Y126.549 E14.75789
G1 X119.883 Y126.6 E14.78524
G1 X100.117 Y126.6 E15.44266
G1 X99.392 Y126.56 E15.46681
G1 X98.675 Y126.441 E15.49099
G1 X97.976 Y126.243 E15.51515
G1 X97.303 Y125.97 E15.53931
G1 X96.664 Y125.625 E15.56346
G1 X96.067 Y125.211 E15.58762
G1 X95.45 Y124.667 E15.61498
G1 X95.333 Y124.55 E15.62049
G1 X94.849 Y124.009 E15.64463
G1 X94.426 Y123.418 E15.6688
G1 X94.072 Y122.784 E15.69295
G1 X93.789 Y122.115 E15.71711
G1 X93.581 Y121.419 E15.74127
G1 X93.451 Y120.704 E15.76545
G1 X93.4 Y119.883 E15.79281
G1 X93.4 Y100.117 E16.45022
G1 X93.44 Y99.392 E16.47438
G1 X93.559 Y98.675 E16.49855
G1 X93.757 Y97.976 E16.52271
G1 X94.03 Y97.303 E16.54687
G1 X94.375 Y96.664 E16.57102
G1 X94.789 Y96.067 E16.59518
G1 X95.333 Y95.45 E16.62254
G0 F6000 X95.616 Y95.733
G1 F1200 X95.733 Y95.616 E16.62805
G1 X96.258 Y95.147 E16.65146
G1 X96.833 Y94.741 E16.67487
G1 X97.451 Y94.403 E16.6983
G1 X98.102 Y94.136 E16.7217
G1 X98.78 Y93.946 E16.74512
G1 X99.475 Y93.833 E16.76854
G1 X100.117 Y93.8 E16.78992
G1 X119.883 Y93.8 E17.44734
G1 X120.586 Y93.84 E17.47076
G1 X121.28 Y93.959 E17.49418
G1 X121.955 Y94.157 E17.51758
G1 X122.604 Y94.429 E17.54098
G1 X123.218 Y94.774 E17.56441
G1 X123.789 Y95.185 E17.58781
G1 X124.267 Y95.616 E17.60921
G1 X124.384 Y95.733 E17.61472
G1 X124.853 Y96.258 E17.63813
G1 X125.259 Y96.833 E17.66154
G1 X125.597 Y97.451 E17.68497
G1 X125.864 Y98.102 E17.70837
G1 X126.054 Y98.78 E17.73179
G1 X126.167 Y99.475 E17.75521
G1 X126.2 Y100.117 E17.77659
G1 X126.2 Y119.883 E18.43401
G1 X126.16 Y120.586 E18.45743
G1 X126.041 Y121.28 E18.48085
G1 X125.843 Y121.955 E18.50425
G1 X125.571 Y122.604 E18.52766
G1 X125.226 Y123.218 E18.55108
G1 X124.815 Y123.789 E18.57448
G1 X124.384 Y124.267 E18.59589
G1 X124.267 Y124.384 E18.60139
G1 X123.742 Y124.853 E18.6248
G1 X123.167 Y125.259 E18.64822
G1 X122.549 Y125.597 E18.67164
G1 X121.898 Y125.864 E18.69505
G1 X121.22 Y126.054 E18.71847
G1 X120.525 Y126.167 E18.74188
G1 X119.883 Y126.2 E18.76327
G1 X100.117 Y126.2 E19.42069
G1 X99.414 Y126.16 E19.44411
G1 X98.72 Y126.041 E19.46752
G1 X98.045 Y125.843 E19.49092
G1 X97.396 Y125.571 E19.51433
G1 X96.782 Y125.226 E19.53775
G1 X96.211 Y124.815 E19.56115
G1 X95.733 Y124.384 E19.58256
G1 X95.616 Y124.267 E19.58806
G1 X95.147 Y123.742 E19.61148
G1 X94.741 Y123.167 E19.63489
G1 X94.403 Y122.549 E19.65832
G1 X94.136 Y121.898 E19.68172
G1 X93.946 Y121.22 E19.70514
G1 X93.833 Y120.525 E19.72856
G1 X93.8 Y119.883 E19.74994
G1 X93.8 Y100.117 E20.40736
G1 X93.84 Y99.414 E20.43078
G1 X93.959 Y98.72 E20.4542
G1 X94.157 Y98.045 E20.47759
G1 X94.429 Y97.396 E20.501
G1 X94.774 Y96.782 E20.52442
G1 X95.185 Y96.211 E20.54782
G1 X95.616 Y95.733 E20.56923
G0 F6000 X95.899 Y96.016
G1 F1200 X96.016 Y95.899 E20.57473
G1 X96.525 Y95.446 E20.5974
G1 X97.083 Y95.057 E20.62002
G1 X97.683 Y94.735 E20.64267
G1 X98.317 Y94.486 E20.66532
G1 X98.976 Y94.313 E20.68798
G1 X99.65 Y94.219 E20.71062
G1 X100.117 Y94.2 E20.72616
G1 X119.883 Y94.2 E21.38358
G1 X120.563 Y94.24 E21.40624
G1 X121.233 Y94.359 E21.42887
G1 X121.885 Y94.556 E21.45153
G1 X122.509 Y94.828 E21.47417
G1 X123.097 Y95.172 E21.49682
G1 X123.641 Y95.582 E21.51948
G1 X123.984 Y95.899 E21.53502
G1 X124.101 Y96.016 E21.54052
G1 X124.554 Y96.525 E21.56318
G1 X124.943 Y97.083 E21.58581
G1 X125.265 Y97.683 E21.60845
G1 X125.514 Y98.317 E21.63111
G1 X125.687 Y98.976 E21.65377
G1 X125.781 Y99.65 E21.6764
G1 X125.8 Y100.117 E21.69195
G1 X125.8 Y119.883 E22.34937
G1 X125.76 Y120.563 E22.37203
G1 X125.641 Y121.233 E22.39466
G1 X125.444 Y121.885 E22.41731
G1 X125.172 Y122.509 E22.43995
G1 X124.828 Y123.097 E22.46261
G1 X124.418 Y123.641 E22.48527
G1 X124.101 Y123.984 E22.5008
G1 X123.984 Y124.101 E22.5063
G1 X123.475 Y124.554 E22.52897
G1 X122.917 Y124.943 E22.55159
G1 X122.317 Y125.265 E22.57424
G1 X121.683 Y125.514 E22.5969
G1 X121.024 Y125.687 E22.61956
G1 X120.35 Y125.781 E22.64219
G1 X119.883 Y125.8 E22.65774
G1 X100.117 Y125.8 E23.31516
G1 X99.437 Y125.76 E23.33781
G1 X98.767 Y125.641 E23.36044
G1 X98.115 Y125.444 E23.3831
G1 X97.491 Y125.172 E23.40574
G1 X96.903 Y124.828 E23.4284
G1 X96.359 Y124.418 E23.45105
G1 X96.016 Y124.101 E23.46659
G1 X95.899 Y123.984 E23.47209
G1 X95.446 Y123.475 E23.49475
G1 X95.057 Y122.917 E23.51738
G1 X94.735 Y122.317 E23.54003
G1 X94.486 Y121.683 E23.56268
G1 X94.313 Y121.024 E23.58534
G1 X94.219 Y120.35 E23.60798
G1 X94.2 Y119.883 E23.62352
G1 X94.2 Y100.117 E24.28094
G1 X94.24 Y99.437 E24.3036
G1 X94.359 Y98.767 E24.32623
G1 X94.556 Y98.115 E24.34888
G1 X94.828 Y97.491 E24.37153
G1 X95.172 Y96.903 E24.39418
G1 X95.582 Y96.359 E24.41684
G1 X95.899 Y96.016 E24.43237
G0 F6000 X96.182 Y96.299
G1 F1200 X96.299 Y96.182 E24.43788
G1 X96.791 Y95.746 E24.45974
G1 X97.332 Y95.374 E24.48158
G1 X97.914 Y95.07 E24.50342
G1 X98.529 Y94.839 E24.52527
G1 X99.168 Y94.684 E24.54714
G1 X100.117 Y94.6 E24.57883
G1 X119.883 Y94.6 E25.23625
G1 X120.539 Y94.64 E25.2581
G1 X121.185 Y94.759 E25.27995
G1 X121.812 Y94.956 E25.30181
G1 X122.41 Y95.228 E25.32366
G1 X122.971 Y95.57 E25.34551
G1 X123.701 Y96.182 E25.3772
G1 X123.818 Y96.299 E25.3827
G1 X124.254 Y96.791 E25.40457
G1 X124.626 Y97.332 E25.4264
G1 X124.93 Y97.914 E25.44824
G1 X125.161 Y98.529 E25.47009
G1 X125.316 Y99.168 E25.49196
G1 X125.4 Y100.117 E25.52365
G1 X125.4 Y119.883 E26.18107
G1 X125.36 Y120.539 E26.20293
G1 X125.241 Y121.185 E26.22478
G1 X125.044 Y121.812 E26.24664
G1 X124.772 Y122.41 E26.26849
G1 X124.43 Y122.971 E26.29034
G1 X123.818 Y123.701 E26.32202
G1 X123.701 Y123.818 E26.32753
G1 X123.209 Y124.254 E26.34939
G1 X122.668 Y124.626 E26.37123
G1 X122.086 Y124.93 E26.39307
G1 X121.471 Y125.161 E26.41492
G1 X120.832 Y125.316 E26.43679
G1 X119.883 Y125.4 E26.46847
G1 X100.117 Y125.4 E27.12589
G1 X99.461 Y125.36 E27.14775
G1 X98.815 Y125.241 E27.1696
G1 X98.188 Y125.044 E27.19146
G1 X97.59 Y124.772 E27.21331
G1 X97.029 Y124.43 E27.23516
G1 X96.299 Y123.818 E27.26685
G1 X96.182 Y123.701 E27.27235
G1 X95.746 Y123.209 E27.29421
G1 X95.374 Y122.668 E27.31605
G1 X95.07 Y122.086 E27.33789
G1 X94.839 Y121.471 E27.35974
G1 X94.684 Y120.832 E27.38161
G1 X94.6 Y119.883 E27.4133
G1 X94.6 Y100.117 E28.07072
G1 X94.64 Y99.461 E28.09258
G1 X94.759 Y98.815 E28.11442
G1 X94.956 Y98.188 E28.13628
G1 X95.228 Y97.59 E28.15813
G1 X95.57 Y97.029 E28.17999
G1 X96.182 Y96.299 E28.21167
G0 F6000 X96.464 Y96.581
G1 F1200 X96.581 Y96.464 E28.21717
G1 X97.056 Y96.047 E28.2382
G1 X97.579 Y95.692 E28.25922
G1 X98.143 Y95.406 E28.28025
G1 X98.738 Y95.194 E28.30126
G1 X99.356 Y95.058 E28.32231
G1 X100.117 Y95 E28.34769
G1 X119.883 Y95 E29.00511
G1 X120.514 Y95.04 E29.02614
G1 X121.135 Y95.159 E29.04717
G1 X121.735 Y95.356 E29.06818
G1 X122.307 Y95.627 E29.08923
G1 X122.839 Y95.967 E29.11023
G1 X123.419 Y96.464 E29.13563
G1 X123.536 Y96.581 E29.14113
G1 X123.953 Y97.056 E29.16216
G1 X124.308 Y97.579 E29.18318
G1 X124.594 Y98.143 E29.20421
G1 X124.806 Y98.738 E29.22522
G1 X124.942 Y99.356 E29.24627
G1 X125 Y100.117 E29.27165
G1 X125 Y119.883 E29.92907
G1 X124.96 Y120.514 E29.9501
G1 X124.841 Y121.135 E29.97113
G1 X124.644 Y121.735 E29.99214
G1 X124.373 Y122.307 E30.01319
G1 X124.033 Y122.839 E30.03419
G1 X123.536 Y123.419 E30.05959
G1 X123.419 Y123.536 E30.0651
G1 X122.944 Y123.953 E30.08612
G1 X122.421 Y124.308 E30.10714
G1 X121.857 Y124.594 E30.12818
G1 X121.262 Y124.806 E30.14918
G1 X120.644 Y124.942 E30.17023
G1 X119.883 Y125 E30.19562
G1 X100.117 Y125 E30.85304
G1 X99.486 Y124.96 E30.87406
