;FLAVOR:Marlin
;TIME:692
;Filament used: 0.4295m
;Layer height: 0.2
;MINX:88.07
;MINY:88.07
;MINZ:0.2
;MAXX:131.93
;MAXY:131.93
;MAXZ:5
;Generated with Cura_SteamEngine 4.8.0
M140 S60
M105
M190 S60
M104 S200
M105
M109 S200
M82 ;absolute extrusion mode
; Ender 3 Custom Start G-code
G92 E0 ; Reset Extruder
G28 ; Home all axes
G1 Z2.0 F3000 ; Move Z Axis up little to prevent scratching of Heat Bed
G1 X0.1 Y20 Z0.3 F5000.0 ; Move to start position
G1 X0.1 Y200.0 Z0.3 F1500.0 E15 ; Draw the first line
G1 X0.4 Y200.0 Z0.3 F5000.0 ; Move to side a little
G1 X0.4 Y20 Z0.3 F1500.0 E30 ; Draw the second line
G92 E0 ; Reset Extruder
G1 Z2.0 F3000 ; Move Z Axis up little to prevent scratching of Heat Bed
G1 X5 Y20 Z0.3 F5000.0 ; Move over to prevent blob squish
G92 E0
G92 E0
G1 F1500 E-6.5
;LAYER_COUNT:25
;LAYER:0
M107
G0 F6000 X94.12 Y94.797 Z0.2
;TYPE:SKIRT
G1 F1500 E0
G1 F1200 X94.846 Y94.074 E0.03408
G1 X95.102 Y93.826 E0.04593
G1 X95.192 Y93.742 E0.05003
G1 X95.545 Y93.427 E0.06576
G1 X95.767 Y93.237 E0.07548
G1 X96.249 Y92.848 E0.09608
G1 X97.092 Y92.205 E0.13135
G1 X97.468 Y91.93 E0.14684
G1 X97.877 Y91.653 E0.16327
G1 X98.122 Y91.495 E0.17297
G1 X98.592 Y91.208 E0.19128
G1 X99.491 Y90.69 E0.22579
G1 X99.899 Y90.466 E0.24127
G1 X100.33 Y90.25 E0.25731
G1 X100.534 Y90.153 E0.26482
G1 X100.868 Y90.001 E0.27703
G1 X101.47 Y89.739 E0.29886
G1 X101.743 Y89.625 E0.3087
G1 X102.075 Y89.491 E0.32061
G1 X102.707 Y89.258 E0.34301
G1 X103.183 Y89.099 E0.35971
G1 X103.445 Y89.015 E0.36886
G1 X103.879 Y88.882 E0.38395
G1 X104.412 Y88.733 E0.40236
G1 X104.757 Y88.646 E0.4142
G1 X105.116 Y88.562 E0.42646
G1 X105.614 Y88.454 E0.44341
G1 X105.919 Y88.392 E0.45376
G1 X106.263 Y88.331 E0.46538
G1 X106.547 Y88.285 E0.47495
G1 X106.833 Y88.242 E0.48457
G1 X107.329 Y88.175 E0.50121
G1 X108.263 Y88.089 E0.53241
G1 X108.875 Y88.076 E0.55277
G1 X108.976 Y88.077 E0.55613
G1 X109.647 Y88.07 E0.57845
G1 X109.866 Y88.077 E0.58574
G1 X111.206 Y88.077 E0.6303
G1 X112.421 Y88.144 E0.67078
G1 X112.556 Y88.159 E0.67529
G1 X113.07 Y88.227 E0.69254
G1 X113.341 Y88.268 E0.70166
G1 X113.84 Y88.35 E0.71847
G1 X114.187 Y88.412 E0.7302
G1 X114.51 Y88.478 E0.74116
G1 X114.804 Y88.543 E0.75118
G1 X115.106 Y88.615 E0.7615
G1 X115.664 Y88.755 E0.78064
G1 X116.245 Y88.917 E0.8007
G1 X116.632 Y89.037 E0.81418
G1 X116.925 Y89.133 E0.82443
G1 X117.356 Y89.28 E0.83958
G1 X117.737 Y89.417 E0.85304
G1 X118.009 Y89.523 E0.86275
G1 X118.292 Y89.637 E0.8729
G1 X118.56 Y89.749 E0.88256
G1 X118.885 Y89.89 E0.89434
G1 X119.218 Y90.041 E0.90651
G1 X119.756 Y90.296 E0.92631
G1 X120.552 Y90.714 E0.95621
G1 X121.197 Y91.087 E0.98099
G1 X121.581 Y91.319 E0.99591
G1 X122.196 Y91.709 E1.02014
G1 X123.017 Y92.284 E1.05347
G1 X123.8 Y92.887 E1.08634
G1 X124.137 Y93.157 E1.10071
G1 X124.258 Y93.258 E1.10595
G1 X124.522 Y93.486 E1.11755
G1 X124.722 Y93.664 E1.12646
G1 X125.209 Y94.124 E1.14874
G1 X125.926 Y94.845 E1.18256
G1 X126.241 Y95.175 E1.19773
G1 X126.573 Y95.545 E1.21426
G1 X126.763 Y95.767 E1.22398
G1 X127.149 Y96.245 E1.24442
G1 X127.788 Y97.082 E1.27944
G1 X128.035 Y97.418 E1.29331
G1 X128.09 Y97.496 E1.29649
G1 X128.337 Y97.862 E1.31117
G1 X128.498 Y98.111 E1.32103
G1 X128.792 Y98.592 E1.33978
G1 X129.31 Y99.491 E1.37429
G1 X129.534 Y99.899 E1.38977
G1 X129.75 Y100.33 E1.40581
G1 X129.847 Y100.534 E1.41332
G1 X129.999 Y100.868 E1.42553
G1 X130.261 Y101.47 E1.44736
G1 X130.371 Y101.732 E1.45681
G1 X130.505 Y102.063 E1.46869
G1 X130.74 Y102.699 E1.49124
G1 X130.893 Y103.156 E1.50727
G1 X130.977 Y103.416 E1.51636
G1 X131.111 Y103.852 E1.53153
G1 X131.224 Y104.247 E1.5452
G1 X131.303 Y104.55 E1.55561
G1 X131.372 Y104.832 E1.56527
G1 X131.431 Y105.088 E1.574
G1 X131.539 Y105.58 E1.59076
G1 X131.612 Y105.939 E1.60294
G1 X131.669 Y106.262 E1.61385
G1 X131.715 Y106.546 E1.62342
G1 X131.758 Y106.83 E1.63297
G1 X131.825 Y107.325 E1.64959
G1 X131.911 Y108.258 E1.68075
G1 X131.924 Y108.872 E1.70118
G1 X131.923 Y108.952 E1.70384
G1 X131.93 Y109.647 E1.72696
G1 X131.923 Y109.863 E1.73414
G1 X131.924 Y111.191 E1.77831
G1 X131.856 Y112.422 E1.81932
G1 X131.84 Y112.565 E1.8241
G1 X131.802 Y112.862 E1.83406
G1 X131.732 Y113.341 E1.85016
G1 X131.65 Y113.84 E1.86698
G1 X131.588 Y114.187 E1.87871
G1 X131.522 Y114.51 E1.88967
G1 X131.457 Y114.804 E1.89969
G1 X131.386 Y115.101 E1.90984
G1 X131.246 Y115.66 E1.92901
G1 X131.083 Y116.245 E1.94921
G1 X130.968 Y116.616 E1.96213
G1 X130.878 Y116.894 E1.97185
G1 X130.728 Y117.336 E1.98737
G1 X130.565 Y117.784 E2.00323
G1 X130.363 Y118.292 E2.02141
G1 X130.246 Y118.571 E2.03147
G1 X130.105 Y118.895 E2.04322
G1 X129.966 Y119.202 E2.05443
G1 X129.712 Y119.74 E2.07422
G1 X129.285 Y120.555 E2.10482
G1 X128.907 Y121.208 E2.12992
G1 X128.674 Y121.593 E2.14489
G1 X128.288 Y122.201 E2.16884
G1 X127.716 Y123.017 E2.20198
G1 X127.113 Y123.8 E2.23485
G1 X126.843 Y124.137 E2.24922
G1 X126.742 Y124.258 E2.25446
G1 X126.494 Y124.545 E2.26707
G1 X126.315 Y124.745 E2.276
G1 X125.88 Y125.203 E2.29701
G1 X125.16 Y125.92 E2.33081
G1 X124.921 Y126.151 E2.34186
G1 X124.825 Y126.241 E2.34624
G1 X124.455 Y126.573 E2.36277
G1 X124.233 Y126.763 E2.37249
G1 X123.751 Y127.152 E2.39309
G1 X122.908 Y127.795 E2.42836
G1 X122.523 Y128.076 E2.44421
G1 X122.138 Y128.337 E2.45968
G1 X121.889 Y128.498 E2.46954
G1 X121.408 Y128.792 E2.48829
G1 X120.509 Y129.31 E2.5228
G1 X120.101 Y129.534 E2.53828
G1 X119.67 Y129.75 E2.55432
G1 X119.466 Y129.847 E2.56183
G1 X119.132 Y129.999 E2.57403
G1 X118.53 Y130.261 E2.59587
G1 X118.257 Y130.375 E2.60571
G1 X117.925 Y130.509 E2.61762
G1 X117.293 Y130.742 E2.64002
G1 X116.817 Y130.901 E2.65671
G1 X116.555 Y130.985 E2.66587
G1 X116.121 Y131.118 E2.68096
G1 X115.588 Y131.267 E2.69937
G1 X115.243 Y131.354 E2.7112
G1 X114.884 Y131.438 E2.72347
G1 X114.386 Y131.546 E2.74042
G1 X114.081 Y131.608 E2.75077
G1 X113.737 Y131.669 E2.76239
G1 X113.453 Y131.715 E2.77196
G1 X113.164 Y131.758 E2.78167
G1 X112.667 Y131.825 E2.79835
G1 X111.733 Y131.911 E2.82955
G1 X111.123 Y131.924 E2.84984
G1 X111.023 Y131.923 E2.85317
G1 X110.353 Y131.93 E2.87546
G1 X110.134 Y131.923 E2.88274
G1 X108.793 Y131.923 E2.92735
G1 X107.569 Y131.855 E2.96812
G1 X107.435 Y131.84 E2.9726
G1 X106.93 Y131.773 E2.98955
G1 X106.659 Y131.732 E2.99866
G1 X106.16 Y131.65 E3.01548
G1 X105.813 Y131.588 E3.02721
G1 X105.49 Y131.522 E3.03817
G1 X105.196 Y131.457 E3.04819
G1 X104.894 Y131.385 E3.05851
G1 X104.336 Y131.245 E3.07765
G1 X103.755 Y131.083 E3.09771
G1 X103.368 Y130.963 E3.11118
G1 X103.075 Y130.867 E3.12144
G1 X102.644 Y130.72 E3.13658
G1 X102.263 Y130.583 E3.15005
G1 X101.991 Y130.477 E3.15976
G1 X101.708 Y130.363 E3.16991
G1 X101.44 Y130.251 E3.17957
G1 X101.115 Y130.11 E3.19135
G1 X100.782 Y129.959 E3.20351
G1 X100.244 Y129.704 E3.22332
G1 X99.449 Y129.287 E3.25317
G1 X98.797 Y128.91 E3.27822
G1 X98.407 Y128.674 E3.29339
G1 X97.799 Y128.288 E3.31734
G1 X96.983 Y127.716 E3.35048
G1 X96.2 Y127.113 E3.38335
G1 X95.856 Y126.837 E3.39802
G1 X95.734 Y126.735 E3.40331
G1 X95.469 Y126.506 E3.41496
G1 X95.266 Y126.325 E3.42401
G1 X94.787 Y125.871 E3.44596
G1 X94.074 Y125.154 E3.47959
G1 X93.761 Y124.827 E3.49464
G1 X93.426 Y124.454 E3.51132
G1 X93.236 Y124.232 E3.52104
G1 X92.846 Y123.749 E3.54169
G1 X92.204 Y122.907 E3.5769
G1 X91.926 Y122.527 E3.59256
G1 X91.639 Y122.102 E3.60962
G1 X91.486 Y121.864 E3.61903
G1 X91.205 Y121.403 E3.63699
G1 X90.687 Y120.503 E3.67152
G1 X90.459 Y120.086 E3.68733
G1 X90.251 Y119.672 E3.70274
G1 X90.153 Y119.466 E3.71033
G1 X89.998 Y119.125 E3.72279
G1 X89.732 Y118.513 E3.74498
G1 X89.609 Y118.219 E3.75558
G1 X89.478 Y117.892 E3.7673
G1 X89.258 Y117.293 E3.78852
G1 X89.101 Y116.824 E3.80497
G1 X89.015 Y116.555 E3.81437
G1 X88.882 Y116.121 E3.82946
G1 X88.733 Y115.588 E3.84787
G1 X88.646 Y115.243 E3.8597
G1 X88.562 Y114.884 E3.87197
G1 X88.454 Y114.386 E3.88892
G1 X88.392 Y114.081 E3.89927
G1 X88.329 Y113.728 E3.91119
G1 X88.28 Y113.424 E3.92144
G1 X88.238 Y113.137 E3.93108
G1 X88.174 Y112.66 E3.94709
G1 X88.089 Y111.726 E3.97828
G1 X88.076 Y111.123 E3.99834
G1 X88.077 Y111.023 E4.00167
G1 X88.07 Y110.353 E4.02396
G1 X88.077 Y110.134 E4.03124
G1 X88.077 Y108.794 E4.07581
G1 X88.144 Y107.579 E4.11628
G1 X88.197 Y107.141 E4.13096
G1 X88.231 Y106.897 E4.13915
G1 X88.274 Y106.618 E4.14854
G1 X88.353 Y106.141 E4.16462
G1 X88.416 Y105.793 E4.17638
G1 X88.478 Y105.49 E4.18667
G1 X88.543 Y105.196 E4.19669
G1 X88.615 Y104.894 E4.20701
G1 X88.755 Y104.336 E4.22615
G1 X88.917 Y103.755 E4.24621
G1 X89.037 Y103.368 E4.25968
G1 X89.133 Y103.075 E4.26994
G1 X89.28 Y102.644 E4.28509
G1 X89.417 Y102.263 E4.29855
G1 X89.523 Y101.991 E4.30826
G1 X89.637 Y101.708 E4.31841
G1 X89.749 Y101.44 E4.32807
G1 X89.89 Y101.115 E4.33985
G1 X90.041 Y100.782 E4.35201
G1 X90.296 Y100.244 E4.37182
G1 X90.713 Y99.449 E4.40167
G1 X91.09 Y98.797 E4.42672
G1 X91.326 Y98.407 E4.44189
G1 X91.712 Y97.799 E4.46584
G1 X92.284 Y96.983 E4.49898
G1 X92.887 Y96.2 E4.53185
G1 X93.157 Y95.863 E4.54622
G1 X93.258 Y95.742 E4.55146
G1 X93.506 Y95.455 E4.56407
G1 X93.685 Y95.255 E4.573
G1 X94.12 Y94.797 E4.59401
G0 F6000 X94.402 Y95.08
G1 F1200 X95.128 Y94.357 E4.62809
G1 X95.375 Y94.119 E4.6395
G1 X95.465 Y94.035 E4.64359
G1 X95.806 Y93.731 E4.65879
G1 X96.028 Y93.541 E4.6685
G1 X96.491 Y93.166 E4.68832
G1 X97.334 Y92.523 E4.72358
G1 X97.699 Y92.256 E4.73863
G1 X98.094 Y91.989 E4.75448
G1 X98.339 Y91.831 E4.76418
G1 X98.792 Y91.555 E4.78182
G1 X99.691 Y91.037 E4.81633
G1 X100.084 Y90.821 E4.83125
G1 X100.502 Y90.611 E4.84681
G1 X100.706 Y90.514 E4.85432
G1 X101.028 Y90.368 E4.86608
G1 X101.63 Y90.106 E4.88792
G1 X101.893 Y89.995 E4.89741
G1 X102.225 Y89.861 E4.90932
G1 X102.834 Y89.637 E4.9309
G1 X103.31 Y89.478 E4.94759
G1 X103.562 Y89.397 E4.9564
G1 X103.996 Y89.264 E4.97149
G1 X104.51 Y89.121 E4.98924
G1 X104.855 Y89.034 E5.00107
G1 X105.2 Y88.953 E5.01286
G1 X105.698 Y88.845 E5.02981
G1 X105.995 Y88.785 E5.03989
G1 X106.327 Y88.725 E5.05111
G1 X106.611 Y88.679 E5.06068
G1 X106.887 Y88.638 E5.06996
G1 X107.383 Y88.571 E5.0866
G1 X108.3 Y88.488 E5.11723
G1 X108.873 Y88.476 E5.13629
G1 X108.978 Y88.477 E5.13978
G1 X109.651 Y88.47 E5.16217
G1 X109.866 Y88.477 E5.16932
G1 X111.206 Y88.477 E5.21389
G1 X112.377 Y88.542 E5.2529
G1 X112.799 Y88.593 E5.26704
G1 X113.276 Y88.662 E5.28307
G1 X113.775 Y88.744 E5.29989
G1 X114.112 Y88.805 E5.31128
G1 X114.423 Y88.869 E5.32184
G1 X114.717 Y88.934 E5.33185
G1 X115.009 Y89.003 E5.34183
G1 X115.567 Y89.143 E5.36097
G1 X116.126 Y89.3 E5.38028
G1 X116.513 Y89.42 E5.39375
G1 X116.796 Y89.511 E5.40364
G1 X117.227 Y89.658 E5.41879
G1 X117.598 Y89.792 E5.43191
G1 X117.86 Y89.894 E5.44126
G1 X118.143 Y90.008 E5.45141
G1 X118.401 Y90.116 E5.46071
G1 X118.726 Y90.257 E5.47249
G1 X119.047 Y90.402 E5.48421
G1 X119.585 Y90.657 E5.50401
G1 X120.351 Y91.06 E5.5328
G1 X120.996 Y91.433 E5.55758
G1 X121.367 Y91.657 E5.57199
G1 X121.982 Y92.047 E5.59621
G1 X122.773 Y92.601 E5.62833
G1 X123.556 Y93.204 E5.6612
G1 X123.881 Y93.464 E5.67505
G1 X124.002 Y93.565 E5.68029
G1 X124.256 Y93.785 E5.69147
G1 X124.456 Y93.963 E5.70037
G1 X124.925 Y94.407 E5.72185
G1 X125.642 Y95.128 E5.75567
G1 X125.859 Y95.352 E5.76604
G1 X125.949 Y95.448 E5.77042
G1 X126.269 Y95.806 E5.78639
G1 X126.459 Y96.028 E5.79611
G1 X126.831 Y96.488 E5.81579
G1 X127.47 Y97.325 E5.85081
G1 X127.708 Y97.649 E5.86418
G1 X127.763 Y97.727 E5.86736
G1 X128.001 Y98.08 E5.88152
G1 X128.162 Y98.329 E5.89138
G1 X128.445 Y98.792 E5.90943
G1 X128.963 Y99.691 E5.94394
G1 X129.179 Y100.084 E5.95885
G1 X129.389 Y100.502 E5.97441
G1 X129.486 Y100.706 E5.98192
G1 X129.632 Y101.028 E5.99368
G1 X129.894 Y101.63 E6.01552
G1 X130 Y101.882 E6.02461
G1 X130.134 Y102.213 E6.03649
G1 X130.361 Y102.826 E6.05823
G1 X130.514 Y103.283 E6.07426
G1 X130.594 Y103.534 E6.08302
G1 X130.728 Y103.97 E6.09819
G1 X130.839 Y104.353 E6.11145
G1 X130.914 Y104.645 E6.12148
G1 X130.983 Y104.927 E6.13114
G1 X131.04 Y105.173 E6.13954
G1 X131.148 Y105.665 E6.15629
G1 X131.219 Y106.015 E6.16817
G1 X131.275 Y106.326 E6.17868
G1 X131.321 Y106.61 E6.18825
G1 X131.361 Y106.883 E6.19742
G1 X131.428 Y107.378 E6.21404
G1 X131.512 Y108.295 E6.24467
G1 X131.524 Y108.87 E6.26379
G1 X131.523 Y108.952 E6.26652
G1 X131.53 Y109.651 E6.28977
G1 X131.523 Y109.863 E6.29683
G1 X131.524 Y111.192 E6.34103
G1 X131.458 Y112.378 E6.38054
G1 X131.406 Y112.807 E6.39491
G1 X131.338 Y113.276 E6.41067
G1 X131.256 Y113.775 E6.42749
G1 X131.195 Y114.112 E6.43888
G1 X131.131 Y114.423 E6.44944
G1 X131.066 Y114.717 E6.45946
G1 X130.998 Y115.004 E6.46927
G1 X130.858 Y115.563 E6.48843
G1 X130.701 Y116.126 E6.50787
G1 X130.586 Y116.497 E6.52079
G1 X130.499 Y116.765 E6.53016
G1 X130.349 Y117.207 E6.54569
G1 X130.191 Y117.643 E6.56111
G1 X129.992 Y118.143 E6.57901
G1 X129.88 Y118.412 E6.5887
G1 X129.739 Y118.736 E6.60046
G1 X129.604 Y119.031 E6.61125
G1 X129.35 Y119.569 E6.63103
G1 X128.939 Y120.354 E6.66051
G1 X128.561 Y121.007 E6.6856
G1 X128.336 Y121.378 E6.70003
G1 X127.95 Y121.986 E6.72399
G1 X127.399 Y122.773 E6.75594
G1 X126.796 Y123.556 E6.78881
G1 X126.536 Y123.881 E6.80265
G1 X126.435 Y124.002 E6.80789
G1 X126.196 Y124.278 E6.82004
G1 X126.017 Y124.478 E6.82897
G1 X125.598 Y124.92 E6.84922
G1 X124.878 Y125.637 E6.88302
G1 X124.552 Y125.949 E6.89803
G1 X124.194 Y126.269 E6.914
G1 X123.972 Y126.459 E6.92372
G1 X123.509 Y126.834 E6.94353
G1 X122.666 Y127.477 E6.9788
G1 X122.292 Y127.75 E6.9942
G1 X121.92 Y128.001 E7.00912
G1 X121.671 Y128.162 E7.01898
G1 X121.208 Y128.445 E7.03703
G1 X120.309 Y128.963 E7.07154
G1 X119.916 Y129.179 E7.08646
G1 X119.498 Y129.389 E7.10202
G1 X119.294 Y129.486 E7.10953
G1 X118.972 Y129.632 E7.12129
G1 X118.37 Y129.894 E7.14313
G1 X118.107 Y130.005 E7.15262
G1 X117.775 Y130.139 E7.16453
G1 X117.166 Y130.363 E7.18611
G1 X116.69 Y130.522 E7.2028
G1 X116.438 Y130.603 E7.21161
G1 X116.004 Y130.736 E7.2267
G1 X115.49 Y130.879 E7.24445
G1 X115.145 Y130.966 E7.25628
G1 X114.8 Y131.047 E7.26807
G1 X114.302 Y131.155 E7.28502
G1 X114.005 Y131.215 E7.2951
G1 X113.673 Y131.275 E7.30632
G1 X113.389 Y131.321 E7.31589
G1 X113.11 Y131.362 E7.32526
G1 X112.613 Y131.429 E7.34194
G1 X111.696 Y131.512 E7.37257
G1 X111.126 Y131.524 E7.39153
G1 X111.022 Y131.523 E7.39499
G1 X110.349 Y131.53 E7.41738
G1 X110.134 Y131.523 E7.42453
G1 X108.793 Y131.523 E7.46913
G1 X107.614 Y131.457 E7.50841
G1 X107.201 Y131.407 E7.52224
G1 X106.724 Y131.338 E7.53827
G1 X106.225 Y131.256 E7.55509
G1 X105.888 Y131.195 E7.56648
G1 X105.577 Y131.131 E7.57705
G1 X105.283 Y131.066 E7.58706
G1 X104.991 Y130.997 E7.59704
G1 X104.433 Y130.857 E7.61617
G1 X103.874 Y130.7 E7.63549
G1 X103.487 Y130.58 E7.64896
G1 X103.204 Y130.489 E7.65885
G1 X102.773 Y130.342 E7.674
G1 X102.402 Y130.208 E7.68711
G1 X102.14 Y130.106 E7.69647
G1 X101.857 Y129.992 E7.70661
G1 X101.599 Y129.884 E7.71592
G1 X101.274 Y129.743 E7.7277
G1 X100.953 Y129.598 E7.73941
G1 X100.415 Y129.343 E7.75922
G1 X99.649 Y128.94 E7.788
G1 X98.997 Y128.563 E7.81305
G1 X98.622 Y128.336 E7.82763
G1 X98.014 Y127.95 E7.85159
G1 X97.227 Y127.399 E7.88354
G1 X96.444 Y126.796 E7.91641
G1 X96.113 Y126.53 E7.93053
G1 X95.991 Y126.428 E7.93582
G1 X95.736 Y126.208 E7.94703
G1 X95.533 Y126.027 E7.95607
G1 X95.071 Y125.589 E7.97725
G1 X94.358 Y124.872 E8.01088
G1 X94.143 Y124.65 E8.02116
G1 X94.052 Y124.553 E8.02558
G1 X93.73 Y124.193 E8.04164
G1 X93.54 Y123.971 E8.05136
G1 X93.164 Y123.506 E8.07125
G1 X92.522 Y122.664 E8.10647
G1 X92.252 Y122.295 E8.12168
G1 X91.976 Y121.886 E8.13809
G1 X91.823 Y121.648 E8.1475
G1 X91.552 Y121.204 E8.1648
G1 X91.034 Y120.304 E8.19934
G1 X90.813 Y119.899 E8.21468
G1 X90.612 Y119.5 E8.22954
