;FLAVOR:Marlin
;TIME:1393
;Filament used: 1.33546m
;Layer height: 0.28
;MINX:89
;MINY:89
;MINZ:0.28
;MAXX:131
;MAXY:131
;MAXZ:19.88
;Generated with Cura_SteamEngine 4.8.0
M140 S60
M105
M190 S60
M104 S200
M105
M109 S200
M82 ;absolute extrusion mode
; Ender 3 Custom Start G-code
G92 E0 ; Reset Extruder
G28 ; Home all axes
G1 Z2.0 F3000 ; Move Z Axis up little to prevent scratching of Heat Bed
G1 X0.1 Y20 Z0.3 F5000.0 ; Move to start position
G1 X0.1 Y200.0 Z0.3 F1500.0 E15 ; Draw the first line
G1 X0.4 Y200.0 Z0.3 F5000.0 ; Move to side a little
G1 X0.4 Y20 Z0.3 F1500.0 E30 ; Draw the second line
G92 E0 ; Reset Extruder
G1 Z2.0 F3000 ; Move Z Axis up little to prevent scratching of Heat Bed
G1 X5 Y20 Z0.3 F5000.0 ; Move over to prevent blob squish
G92 E0
G92 E0
G1 F1500 E-6.5
;LAYER_COUNT:71
;LAYER:0
M107
G0 F6000 X92.198 Y92.264 Z0.28
;TYPE:SKIRT
G1 F1500 E0
G1 F1200 X92.886 Y91.627 E0.04366
G1 X93.626 Y91.051 E0.08732
G1 X94.412 Y90.539 E0.131
G1 X95.239 Y90.097 E0.17467
G1 X96.101 Y89.727 E0.21835
G1 X96.991 Y89.431 E0.26202
G1 X97.903 Y89.213 E0.30568
G1 X98.83 Y89.072 E0.34935
G1 X99.701 Y89.013 E0.39
G1 X100.022 Y89.004 E0.40495
G1 X100.33 Y89 E0.41929
G1 X119.293 Y89 E1.30229
G1 X120.149 Y89.011 E1.34215
G1 X121.085 Y89.065 E1.38581
G1 X122.013 Y89.197 E1.42945
G1 X122.927 Y89.409 E1.47314
G1 X123.819 Y89.698 E1.5168
G1 X124.684 Y90.061 E1.56049
G1 X125.514 Y90.497 E1.60414
G1 X126.305 Y91.002 E1.64784
G1 X127.049 Y91.573 E1.69151
G1 X127.742 Y92.205 E1.73518
G1 X128.379 Y92.893 E1.77884
G1 X128.954 Y93.634 E1.82252
G1 X129.465 Y94.42 E1.86617
G1 X129.907 Y95.248 E1.90988
G1 X130.276 Y96.11 E1.95354
G1 X130.571 Y97 E1.9972
G1 X130.789 Y97.912 E2.04086
G1 X130.929 Y98.84 E2.08456
G1 X130.987 Y99.701 E2.12474
G1 X130.996 Y100.021 E2.13965
G1 X131 Y100.33 E2.15404
G1 X130.999 Y119.4 E3.04202
G1 X130.99 Y120.127 E3.07587
G1 X130.939 Y121.064 E3.11957
G1 X130.807 Y121.992 E3.16321
G1 X130.598 Y122.906 E3.20687
G1 X130.311 Y123.799 E3.25055
G1 X129.949 Y124.665 E3.29425
G1 X129.515 Y125.496 E3.33791
G1 X129.011 Y126.287 E3.38158
G1 X128.442 Y127.032 E3.42523
G1 X127.811 Y127.727 E3.46894
G1 X127.124 Y128.365 E3.5126
G1 X126.385 Y128.942 E3.55626
G1 X125.599 Y129.454 E3.59994
G1 X124.773 Y129.897 E3.64358
G1 X123.911 Y130.269 E3.6873
G1 X123.022 Y130.565 E3.73093
G1 X122.11 Y130.785 E3.77461
G1 X121.183 Y130.926 E3.81827
G1 X120.299 Y130.987 E3.85953
G1 X119.978 Y130.996 E3.87449
G1 X119.67 Y131 E3.88883
G1 X100.565 Y130.999 E4.77844
G1 X99.867 Y130.99 E4.81094
G1 X98.931 Y130.938 E4.8546
G1 X98.002 Y130.806 E4.89829
G1 X97.088 Y130.596 E4.94196
G1 X96.195 Y130.309 E4.98563
G1 X95.33 Y129.946 E5.02931
G1 X94.499 Y129.512 E5.07297
G1 X93.708 Y129.008 E5.11664
G1 X92.963 Y128.438 E5.16032
G1 X92.269 Y127.807 E5.204
G1 X91.632 Y127.12 E5.24762
G1 X91.055 Y126.38 E5.29132
G1 X90.543 Y125.594 E5.335
G1 X90.1 Y124.767 E5.37868
G1 X89.729 Y123.906 E5.42234
G1 X89.433 Y123.016 E5.46601
G1 X89.214 Y122.104 E5.50968
G1 X89.073 Y121.177 E5.55335
G1 X89.013 Y120.288 E5.59484
G1 X89.004 Y119.955 E5.61035
G1 X89 Y119.658 E5.62418
G1 X89.001 Y100.525 E6.51509
G1 X89.01 Y99.86 E6.54606
G1 X89.063 Y98.924 E6.58971
G1 X89.195 Y97.995 E6.63341
G1 X89.406 Y97.081 E6.67708
G1 X89.694 Y96.189 E6.72073
G1 X90.057 Y95.324 E6.76441
G1 X90.492 Y94.493 E6.80809
G1 X90.996 Y93.703 E6.85172
G1 X91.566 Y92.958 E6.8954
G1 X92.198 Y92.264 E6.93911
G0 F6000 X92.589 Y92.439
G1 F1200 X93.274 Y91.823 E6.98201
G1 X94.01 Y91.27 E7.02487
G1 X94.791 Y90.782 E7.06775
G1 X95.611 Y90.364 E7.11061
G1 X96.465 Y90.019 E7.1535
G1 X97.345 Y89.749 E7.19636
G1 X98.245 Y89.557 E7.23921
G1 X99.159 Y89.443 E7.2821
G1 X99.712 Y89.413 E7.30789
G1 X100.033 Y89.404 E7.32284
G1 X100.33 Y89.4 E7.33667
G1 X119.293 Y89.4 E8.21967
G1 X120.143 Y89.411 E8.25925
G1 X121.062 Y89.464 E8.30212
G1 X121.973 Y89.597 E8.34499
G1 X122.869 Y89.808 E8.38785
G1 X123.743 Y90.096 E8.4307
G1 X124.59 Y90.459 E8.47361
G1 X125.401 Y90.894 E8.51646
G1 X126.171 Y91.398 E8.55931
G1 X126.895 Y91.967 E8.60219
G1 X127.567 Y92.597 E8.64508
G1 X128.182 Y93.282 E8.68795
G1 X128.735 Y94.018 E8.73082
G1 X129.222 Y94.799 E8.77367
G1 X129.639 Y95.62 E8.81655
G1 X129.984 Y96.474 E8.85944
G1 X130.253 Y97.354 E8.90229
G1 X130.445 Y98.255 E8.94518
G1 X130.558 Y99.168 E8.98802
G1 X130.587 Y99.712 E9.01339
G1 X130.596 Y100.032 E9.02829
G1 X130.6 Y100.33 E9.04217
G1 X130.599 Y119.395 E9.92992
G1 X130.59 Y120.122 E9.96377
G1 X130.539 Y121.041 E10.00663
G1 X130.408 Y121.953 E10.04953
G1 X130.198 Y122.849 E10.09239
G1 X129.912 Y123.724 E10.13525
G1 X129.551 Y124.571 E10.17812
G1 X129.117 Y125.383 E10.22099
G1 X128.615 Y126.155 E10.26387
G1 X128.047 Y126.88 E10.30676
G1 X127.419 Y127.553 E10.34962
G1 X126.735 Y128.169 E10.39248
G1 X126 Y128.723 E10.43534
G1 X125.22 Y129.212 E10.47821
G1 X124.4 Y129.631 E10.52109
G1 X123.547 Y129.977 E10.56395
G1 X122.667 Y130.248 E10.60683
G1 X121.767 Y130.441 E10.64969
G1 X120.853 Y130.556 E10.69258
G1 X120.288 Y130.587 E10.71893
G1 X119.967 Y130.596 E10.73388
G1 X119.67 Y130.6 E10.74771
G1 X100.57 Y130.599 E11.63709
G1 X99.872 Y130.59 E11.66959
G1 X98.953 Y130.538 E11.71246
G1 X98.042 Y130.407 E11.75531
G1 X97.146 Y130.197 E11.79816
G1 X96.271 Y129.91 E11.84104
G1 X95.424 Y129.548 E11.88393
G1 X94.612 Y129.114 E11.92681
G1 X93.841 Y128.612 E11.96965
G1 X93.116 Y128.044 E12.01253
G1 X92.443 Y127.415 E12.05543
G1 X91.828 Y126.731 E12.09826
G1 X91.274 Y125.996 E12.14111
G1 X90.786 Y125.215 E12.184
G1 X90.367 Y124.395 E12.22688
G1 X90.021 Y123.542 E12.26974
G1 X89.751 Y122.662 E12.3126
G1 X89.558 Y121.761 E12.35551
G1 X89.444 Y120.848 E12.39835
G1 X89.413 Y120.277 E12.42498
G1 X89.404 Y119.944 E12.44049
G1 X89.4 Y119.658 E12.45381
G1 X89.401 Y100.531 E13.34444
G1 X89.41 Y99.866 E13.37541
G1 X89.462 Y98.946 E13.41832
G1 X89.594 Y98.035 E13.46118
G1 X89.805 Y97.139 E13.50404
G1 X90.092 Y96.264 E13.54692
G1 X90.455 Y95.418 E13.58979
G1 X90.889 Y94.606 E13.63266
G1 X91.392 Y93.835 E13.67552
G1 X91.961 Y93.111 E13.7184
G1 X92.589 Y92.439 E13.76123
G0 F6000 X92.981 Y92.617
G1 F1200 X93.662 Y92.024 E13.80328
G1 X94.394 Y91.494 E13.84536
G1 X95.169 Y91.031 E13.8874
G1 X95.982 Y90.638 E13.92944
G1 X96.827 Y90.318 E13.97152
G1 X97.696 Y90.075 E14.01353
G1 X98.584 Y89.909 E14.0556
G1 X99.723 Y89.813 E14.10882
G1 X100.044 Y89.804 E14.12378
G1 X100.33 Y89.8 E14.1371
G1 X119.293 Y89.8 E15.02009
G1 X120.137 Y89.811 E15.0594
G1 X121.039 Y89.864 E15.10147
G1 X121.932 Y89.996 E15.1435
G1 X122.81 Y90.207 E15.18555
G1 X123.666 Y90.495 E15.2276
G1 X124.493 Y90.857 E15.26964
G1 X125.285 Y91.292 E15.31172
G1 X126.036 Y91.794 E15.35378
G1 X126.739 Y92.361 E15.39583
G1 X127.389 Y92.988 E15.43789
G1 X127.981 Y93.67 E15.47994
G1 X128.511 Y94.401 E15.52198
G1 X128.973 Y95.177 E15.56404
G1 X129.366 Y95.99 E15.60608
G1 X129.684 Y96.835 E15.64812
G1 X129.927 Y97.705 E15.69019
G1 X130.092 Y98.593 E15.73224
G1 X130.187 Y99.723 E15.78505
G1 X130.196 Y100.043 E15.79995
G1 X130.2 Y100.33 E15.81332
G1 X130.199 Y119.39 E16.70083
G1 X130.19 Y120.117 E16.73469
G1 X130.139 Y121.019 E16.77675
G1 X130.008 Y121.913 E16.81883
G1 X129.799 Y122.791 E16.86085
G1 X129.513 Y123.648 E16.90292
G1 X129.152 Y124.476 E16.94498
G1 X128.72 Y125.268 E16.98699
G1 X128.219 Y126.02 E17.02906
G1 X127.653 Y126.724 E17.07113
G1 X127.028 Y127.375 E17.11315
G1 X126.347 Y127.969 E17.15523
G1 X125.616 Y128.5 E17.1973
G1 X124.842 Y128.964 E17.23932
G1 X124.029 Y129.358 E17.28139
G1 X123.185 Y129.678 E17.32342
G1 X122.315 Y129.923 E17.3655
G1 X121.428 Y130.089 E17.40752
G1 X120.277 Y130.187 E17.46131
G1 X119.956 Y130.196 E17.47627
G1 X119.67 Y130.2 E17.48958
G1 X100.575 Y130.199 E18.37873
G1 X99.877 Y130.19 E18.41123
G1 X98.976 Y130.139 E18.45325
G1 X98.082 Y130.007 E18.49533
G1 X97.204 Y129.798 E18.53736
G1 X96.347 Y129.511 E18.57944
G1 X95.52 Y129.15 E18.62146
G1 X94.727 Y128.717 E18.66353
G1 X93.976 Y128.216 E18.70557
G1 X93.272 Y127.65 E18.74763
G1 X92.621 Y127.024 E18.78968
G1 X92.028 Y126.343 E18.83173
G1 X91.498 Y125.612 E18.87378
G1 X91.034 Y124.837 E18.91584
G1 X90.64 Y124.024 E18.9579
G1 X90.32 Y123.18 E18.99993
G1 X90.076 Y122.31 E19.04201
G1 X89.91 Y121.422 E19.08407
G1 X89.813 Y120.267 E19.13804
G1 X89.804 Y119.934 E19.15356
G1 X89.8 Y119.658 E19.16641
G1 X89.801 Y100.536 E20.05681
G1 X89.81 Y99.871 E20.08778
G1 X89.862 Y98.969 E20.12985
G1 X89.994 Y98.076 E20.17188
G1 X90.204 Y97.198 E20.21392
G1 X90.491 Y96.341 E20.256
G1 X90.853 Y95.514 E20.29804
G1 X91.286 Y94.722 E20.34007
G1 X91.788 Y93.971 E20.38213
G1 X92.355 Y93.267 E20.42422
G1 X92.981 Y92.617 E20.46624
G1 F1500 E13.96624
;MESH:cubewithhole.stl
G0 F6000 X106.199 Y107.916
G0 X104.925 Y107.212
G0 X104.566 Y109.758
G0 X104.628 Y110.864
G0 X104.942 Y112
G0 X105.448 Y112.976
G0 X106.154 Y113.846
G0 X107.024 Y114.552
G0 X108 Y115.058
G0 X109.876 Y115.599
;TYPE:WALL-INNER
G1 F1500 E20.46624
G1 F1200 X110.25 Y115.595 E20.48366
G1 X110.632 Y115.565 E20.5015
G1 X111.019 Y115.508 E20.51972
G1 X111.412 Y115.42 E20.53847
G1 X111.802 Y115.302 E20.55744
G1 X112.187 Y115.156 E20.57662
G1 X112.447 Y115.038 E20.58991
G1 X112.697 Y114.908 E20.60303
G1 X112.946 Y114.764 E20.61643
G1 X113.184 Y114.606 E20.62973
G1 X113.416 Y114.439 E20.64304
G1 X113.641 Y114.255 E20.65657
G1 X113.856 Y114.061 E20.67006
G1 X114.061 Y113.856 E20.68356
G1 X114.255 Y113.641 E20.69704
G1 X114.438 Y113.416 E20.71055
G1 X114.607 Y113.183 E20.72395
G1 X114.765 Y112.943 E20.73733
G1 X114.908 Y112.696 E20.75062
G1 X115.038 Y112.447 E20.7637
G1 X115.156 Y112.186 E20.77704
G1 X115.302 Y111.802 E20.79616
G1 X115.42 Y111.412 E20.81514
G1 X115.508 Y111.019 E20.83389
G1 X115.565 Y110.632 E20.85211
G1 X115.595 Y110.253 E20.86981
G1 X115.6 Y109.996 E20.88178
G1 X115.588 Y109.624 E20.89911
G1 X115.548 Y109.241 E20.91704
G1 X115.482 Y108.851 E20.93546
G1 X115.384 Y108.459 E20.95427
G1 X115.257 Y108.068 E20.97342
G1 X115.099 Y107.684 E20.99275
G1 X114.974 Y107.428 E21.00602
G1 X114.838 Y107.178 E21.01927
G1 X114.687 Y106.935 E21.03259
G1 X114.524 Y106.699 E21.04595
G1 X114.348 Y106.471 E21.05936
G1 X114.16 Y106.25 E21.07287
G1 X113.96 Y106.04 E21.08637
G1 X113.75 Y105.84 E21.09988
G1 X113.529 Y105.652 E21.11339
G1 X113.301 Y105.476 E21.1268
G1 X113.065 Y105.313 E21.14015
G1 X112.822 Y105.162 E21.15347
G1 X112.571 Y105.025 E21.16679
G1 X112.319 Y104.903 E21.17983
G1 X112.058 Y104.792 E21.19303
G1 X111.672 Y104.655 E21.21211
G1 X111.281 Y104.547 E21.23099
G1 X110.889 Y104.47 E21.2496
G1 X110.503 Y104.422 E21.26771
G1 X110.124 Y104.401 E21.28538
G1 X109.75 Y104.405 E21.3028
G1 X109.368 Y104.435 E21.32064
G1 X108.981 Y104.492 E21.33886
G1 X108.588 Y104.58 E21.35761
G1 X108.198 Y104.698 E21.37658
G1 X107.813 Y104.844 E21.39576
G1 X107.553 Y104.962 E21.40905
G1 X107.303 Y105.092 E21.42217
G1 X107.054 Y105.236 E21.43556
G1 X106.816 Y105.394 E21.44887
G1 X106.584 Y105.561 E21.46218
G1 X106.359 Y105.745 E21.47571
G1 X106.144 Y105.939 E21.4892
G1 X105.939 Y106.144 E21.5027
G1 X105.745 Y106.359 E21.51618
G1 X105.562 Y106.584 E21.52968
G1 X105.393 Y106.817 E21.54309
G1 X105.235 Y107.057 E21.55647
G1 X105.092 Y107.304 E21.56976
G1 X104.962 Y107.553 E21.58284
G1 X104.844 Y107.814 E21.59617
G1 X104.698 Y108.198 E21.6153
G1 X104.58 Y108.588 E21.63428
G1 X104.492 Y108.981 E21.65303
G1 X104.435 Y109.368 E21.67124
G1 X104.405 Y109.75 E21.68909
G1 X104.401 Y110.124 E21.7065
G1 X104.422 Y110.503 E21.72418
G1 X104.47 Y110.889 E21.74229
G1 X104.547 Y111.281 E21.76089
G1 X104.655 Y111.672 E21.77978
G1 X104.792 Y112.058 E21.79885
G1 X104.903 Y112.319 E21.81206
G1 X105.025 Y112.571 E21.8251
G1 X105.162 Y112.822 E21.83841
G1 X105.313 Y113.065 E21.85173
G1 X105.476 Y113.301 E21.86509
G1 X105.652 Y113.529 E21.8785
G1 X105.84 Y113.75 E21.89201
G1 X106.04 Y113.96 E21.90551
G1 X106.25 Y114.16 E21.91902
G1 X106.471 Y114.348 E21.93253
G1 X106.699 Y114.524 E21.94594
G1 X106.935 Y114.687 E21.9593
G1 X107.178 Y114.838 E21.97262
G1 X107.429 Y114.975 E21.98593
G1 X107.681 Y115.097 E21.99897
G1 X107.942 Y115.208 E22.01218
G1 X108.328 Y115.345 E22.03125
G1 X108.719 Y115.453 E22.05014
G1 X109.111 Y115.53 E22.06874
G1 X109.497 Y115.578 E22.08685
G1 X109.876 Y115.599 E22.10453
G0 F6000 X109.885 Y115.199
;TYPE:WALL-OUTER
G1 F1200 X110.232 Y115.195 E22.12069
G1 X110.587 Y115.167 E22.13727
G1 X110.946 Y115.114 E22.15416
G1 X111.31 Y115.033 E22.17153
G1 X111.673 Y114.923 E22.18919
G1 X112.033 Y114.787 E22.20711
G1 X112.272 Y114.678 E22.21934
G1 X112.505 Y114.557 E22.23157
G1 X112.735 Y114.424 E22.24394
G1 X112.956 Y114.277 E22.2563
G1 X113.172 Y114.121 E22.2687
G1 X113.381 Y113.951 E22.28125
G1 X113.581 Y113.771 E22.29378
G1 X113.771 Y113.581 E22.30629
G1 X113.951 Y113.381 E22.31882
G1 X114.121 Y113.172 E22.33136
G1 X114.278 Y112.956 E22.3438
G1 X114.424 Y112.733 E22.35621
G1 X114.557 Y112.503 E22.36858
G1 X114.678 Y112.271 E22.38076
G1 X114.787 Y112.032 E22.393
G1 X114.923 Y111.673 E22.41087
G1 X115.033 Y111.31 E22.42853
G1 X115.114 Y110.946 E22.4459
G1 X115.167 Y110.587 E22.4628
G1 X115.195 Y110.233 E22.47933
G1 X115.2 Y109.998 E22.49028
G1 X115.189 Y109.651 E22.50644
G1 X115.152 Y109.295 E22.52311
G1 X115.09 Y108.933 E22.54021
G1 X114.999 Y108.569 E22.55768
G1 X114.881 Y108.206 E22.57545
G1 X114.734 Y107.848 E22.59347
G1 X114.619 Y107.612 E22.6057
G1 X114.492 Y107.38 E22.61801
G1 X114.352 Y107.154 E22.63039
G1 X114.201 Y106.935 E22.64278
G1 X114.037 Y106.723 E22.65526
G1 X113.863 Y106.518 E22.66778
G1 X113.677 Y106.323 E22.68033
G1 X113.482 Y106.137 E22.69288
G1 X113.277 Y105.963 E22.7054
G1 X113.065 Y105.799 E22.71788
G1 X112.846 Y105.648 E22.73027
G1 X112.62 Y105.508 E22.74264
G1 X112.388 Y105.381 E22.75496
G1 X112.153 Y105.267 E22.76712
G1 X111.913 Y105.165 E22.77926
G1 X111.552 Y105.037 E22.7971
G1 X111.189 Y104.937 E22.81463
G1 X110.826 Y104.865 E22.83186
G1 X110.467 Y104.821 E22.84871
G1 X110.115 Y104.801 E22.86512
G1 X109.768 Y104.805 E22.88128
G1 X109.413 Y104.833 E22.89786
G1 X109.054 Y104.886 E22.91476
G1 X108.69 Y104.967 E22.93213
G1 X108.327 Y105.077 E22.94979
G1 X107.967 Y105.213 E22.96771
G1 X107.728 Y105.322 E22.97994
G1 X107.495 Y105.443 E22.99216
G1 X107.265 Y105.576 E23.00453
G1 X107.044 Y105.723 E23.01689
G1 X106.828 Y105.879 E23.0293
G1 X106.619 Y106.049 E23.04185
G1 X106.419 Y106.229 E23.05437
G1 X106.229 Y106.419 E23.06689
G1 X106.049 Y106.619 E23.07942
G1 X105.879 Y106.828 E23.09196
G1 X105.722 Y107.044 E23.10439
G1 X105.576 Y107.267 E23.11681
G1 X105.443 Y107.497 E23.12918
G1 X105.322 Y107.729 E23.14136
G1 X105.213 Y107.968 E23.15359
G1 X105.077 Y108.327 E23.17147
G1 X104.967 Y108.69 E23.18913
G1 X104.886 Y109.054 E23.20649
G1 X104.833 Y109.413 E23.22339
G1 X104.805 Y109.768 E23.23997
G1 X104.801 Y110.115 E23.25613
G1 X104.821 Y110.467 E23.27255
G1 X104.865 Y110.826 E23.28939
G1 X104.937 Y111.189 E23.30662
G1 X105.037 Y111.552 E23.32416
G1 X105.165 Y111.913 E23.34199
G1 X105.267 Y112.153 E23.35413
G1 X105.381 Y112.388 E23.3663
G1 X105.508 Y112.62 E23.37861
G1 X105.648 Y112.846 E23.39099
G1 X105.799 Y113.065 E23.40338
G1 X105.963 Y113.277 E23.41586
G1 X106.137 Y113.482 E23.42838
G1 X106.323 Y113.677 E23.44093
G1 X106.518 Y113.863 E23.45347
G1 X106.723 Y114.037 E23.466
G1 X106.935 Y114.201 E23.47848
G1 X107.154 Y114.352 E23.49086
G1 X107.38 Y114.492 E23.50324
G1 X107.612 Y114.619 E23.51556
G1 X107.847 Y114.733 E23.52772
G1 X108.087 Y114.835 E23.53986
G1 X108.448 Y114.963 E23.5577
G1 X108.811 Y115.063 E23.57523
G1 X109.174 Y115.135 E23.59246
G1 X109.533 Y115.179 E23.6093
G1 X109.885 Y115.199 E23.62572
G0 F6000 X109.876 Y115.638
G1 F1500 E17.12572
G0 F6000 X111.46 Y115.604
G0 X111.084 Y114.197
G0 X111.46 Y120.665
